(Generated by PartKam Version 0.05)

G20 G90 G40

(profile 1)
G0 Z0.5
T0 M6
G17
M3
G0 X-1.4342 Y-3.6095
G1 Z-0.1 F30
G2 X-0.4855 Y-3.4665 I1.5061 J-6.7734 F60
G1 X-0.3951 Y-3.4592
G3 X-0.3378 Y-3.402 I-0.005 J0.0623
G1 X-0.3313 Y-3.3225
G3 X-0.3292 Y-3.2867 I-0.7539 J0.062
G3 X-0.3243 Y-3.1237 I-16.981 J0.5879
G3 X-0.3207 Y-2.9609 I-31.0606 J0.777
G3 X-0.3172 Y-2.7653 I-44.8537 J0.8869
G1 X-0.3108 Y-2.3484
G1 X-0.2837 Y-2.3461
G2 X-0.2511 Y-2.3438 I0.0903 J-1.0684
G2 X-0.1943 Y-2.3413 I0.1688 J-3.1303
G2 X-0.1373 Y-2.3397 I0.1274 J-3.5623
G2 X-0.0916 Y-2.3392 I0.0457 J-2.3152
G1 X0.0223 Y-2.3392
G3 X0.0847 Y-2.2797 I0 J0.0625
G1 X0.0911 Y-2.1435
G3 X0.0934 Y-2.0867 I-4.848 J0.2264
G3 X0.0975 Y-1.9611 I-23.8381 J0.8333
G3 X0.1009 Y-1.8357 I-32.1644 J0.9549
G3 X0.1038 Y-1.7158 I-29.3822 J0.7576
G1 X0.1101 Y-1.4257
G3 X0.1101 Y-1.4244 I-0.0625 J0.0014
G3 X0.0551 Y-1.3623 I-0.0625 J0
G1 X-0.0037 Y-1.3553
G3 X-0.0311 Y-1.3527 I-0.0656 J-0.5462
G3 X-0.0809 Y-1.3498 I-0.1371 J-1.9698
G3 X-0.1304 Y-1.3481 I-0.1097 J-2.4778
G3 X-0.1753 Y-1.3475 I-0.0492 J-2.0268
G2 X-0.2174 Y-1.347 I0.0038 J1.8289
G2 X-0.2592 Y-1.3454 I0.0453 J1.8073
G2 X-0.3003 Y-1.3428 I0.0599 J1.2416
G2 X-0.3019 Y-1.3426 I0.0121 J0.1481
G1 X-0.3019 Y-0.8808
G1 X-0.3019 Y-0.3656
G3 X-0.3644 Y-0.3031 I-0.0625 J0
G1 X-0.3907 Y-0.3031
G1 X-0.3907 Y-0.2778
G3 X-0.459 Y-0.2156 I-0.0625 J0
G1 X-0.5118 Y-0.2205
G2 X-0.5324 Y-0.2222 I-0.1022 J1.0985
G2 X-0.603 Y-0.2272 I-0.9085 J12.2499
G2 X-0.6738 Y-0.2319 I-1.3467 J19.6971
G2 X-0.7515 Y-0.2368 I-1.5365 J23.7241
G3 X-1.3051 Y-0.2806 I0.9735 J-15.836
G3 X-1.7823 Y-0.3365 I1.1419 J-11.809
G3 X-2.2613 Y-0.414 I1.4157 J-10.2763
G3 X-2.6822 Y-0.5037 I1.4888 J-8.0142
G3 X-3.0977 Y-0.6168 I1.721 J-7.1414
G3 X-3.473 Y-0.7441 I1.8072 J-5.945
G3 X-3.836 Y-0.8944 I2.054 J-5.4751
G3 X-4.1762 Y-1.0633 I2.2573 J-4.973
G1 X-4.3117 Y-1.1366
G1 X-4.3678 Y-1.1273
G2 X-4.4526 Y-1.105 I0.0762 J0.4612
G2 X-4.4989 Y-1.0804 I0.0669 J0.1825
G2 X-4.5348 Y-1.0455 I0.0983 J0.1371
G2 X-4.5702 Y-0.9852 I0.2315 J0.1762
G3 X-4.6111 Y-0.896 I-2.1783 J-0.9458
G3 X-4.6303 Y-0.8621 I-0.2751 J-0.1332
G3 X-4.6629 Y-0.8257 I-0.1347 J-0.088
G3 X-4.7046 Y-0.8028 I-0.0819 J-0.0997
G3 X-4.7716 Y-0.7969 I-0.0462 J-0.1408
G3 X-4.8345 Y-0.821 I0.0212 J-0.1494
G3 X-4.8789 Y-0.8613 I0.1151 J-0.1714
G3 X-4.9272 Y-0.931 I0.4014 J-0.33
G3 X-4.9789 Y-1.036 I0.7547 J-0.437
G3 X-5.0156 Y-1.1456 I0.7855 J-0.3233
G3 X-5.0382 Y-1.2577 I1.0048 J-0.2612
G3 X-5.0556 Y-1.4201 I2.1649 J-0.314
G1 X-5.0612 Y-1.5007
G1 X-5.2485 Y-1.6439
G2 X-5.3349 Y-1.7095 I-9.6961 J12.6824
G2 X-5.4031 Y-1.7605 I-5.9346 J7.8727
G2 X-5.4354 Y-1.7842 I-3.717 J5.0205
G2 X-5.4552 Y-1.7985 I-1.3939 J1.9082
G2 X-5.4731 Y-1.811 I-0.6166 J0.8627
G2 X-5.4935 Y-1.8146 I-0.0524 J0.2383
G2 X-5.5196 Y-1.8172 I-0.0528 J0.3991
G2 X-5.5478 Y-1.8182 I-0.0302 J0.4563
G2 X-5.5866 Y-1.8166 I-0.0019 J0.4294
G2 X-5.6086 Y-1.8133 I0.0144 J0.1675
G2 X-5.6291 Y-1.8067 I0.026 J0.1173
G2 X-5.6459 Y-1.7977 I0.0388 J0.0925
G2 X-5.6621 Y-1.7849 I0.0688 J0.1031
G2 X-5.685 Y-1.7604 I0.1838 J0.1954
G2 X-5.7053 Y-1.7338 I0.3256 J0.2691
G2 X-5.7373 Y-1.6856 I0.9503 J0.6665
G3 X-5.7727 Y-1.6377 I-0.3414 J-0.2149
G3 X-5.811 Y-1.6002 I-0.2337 J-0.2007
G3 X-5.8594 Y-1.5697 I-0.1452 J-0.177
G3 X-5.9093 Y-1.5587 I-0.0499 J-0.107
G3 X-5.9619 Y-1.5691 I0 J-0.137
G3 X-6.0118 Y-1.5987 I0.0789 J-0.1903
G3 X-6.0508 Y-1.638 I0.1526 J-0.1904
G3 X-6.0813 Y-1.6866 I0.2117 J-0.1668
G3 X-6.1051 Y-1.7503 I0.3172 J-0.1549
G3 X-6.1246 Y-1.8456 I0.7829 J-0.2094
G3 X-6.1353 Y-1.9388 I1.739 J-0.2473
G3 X-6.1537 Y-2.1754 I11.5589 J-1.0181
G1 X-6.1678 Y-2.384
G1 X-6.3119 Y-2.5387
G1 X-6.453 Y-2.6901
G1 X-6.5156 Y-2.6909
G2 X-6.6398 Y-2.6811 I-0.0086 J0.682
G2 X-6.7078 Y-2.6593 I0.0433 J0.2518
G2 X-6.7616 Y-2.6208 I0.0852 J0.1762
G2 X-6.8102 Y-2.5546 I0.1984 J0.1964
G3 X-6.8297 Y-2.5187 I-1.3893 J-0.7325
G3 X-6.8413 Y-2.4992 I-0.3785 J-0.2123
G3 X-6.8584 Y-2.4751 I-0.2328 J-0.1471
G3 X-6.8756 Y-2.4569 I-0.1114 J-0.0884
G3 X-6.8992 Y-2.4406 I-0.08 J-0.0905
G3 X-6.926 Y-2.4304 I-0.056 J-0.106
G3 X-6.9471 Y-2.4268 I-0.0338 J-0.1344
G3 X-6.9735 Y-2.4255 I-0.0277 J-0.3029
G3 X-7.0346 Y-2.4396 I-0.0006 J-0.1368
G3 X-7.0881 Y-2.479 I0.0833 J-0.169
G3 X-7.1246 Y-2.5291 I0.1758 J-0.1668
G3 X-7.1528 Y-2.5952 I0.3177 J-0.1745
G3 X-7.1678 Y-2.6591 I0.4274 J-0.1339
G3 X-7.1783 Y-2.7535 I1.0141 J-0.1605
G3 X-7.1812 Y-2.8437 I1.399 J-0.0902
G1 X-7.1812 Y-2.8438
G3 X-7.1783 Y-2.954 I2.1114 J0.0002
G3 X-7.1555 Y-3.1846 I2.5092 J0.1313
G3 X-7.1136 Y-3.3983 I2.188 J0.3185
G2 X-7.1004 Y-3.4527 I-5.2049 J-1.2908
G2 X-7.0907 Y-3.4949 I-3.1525 J-0.747
G2 X-7.0863 Y-3.5148 I-1.982 J-0.4418
G2 X-7.0847 Y-3.5229 I-0.7276 J-0.1545
G2 X-7.0868 Y-3.5271 I-0.5129 J0.2644
G2 X-7.0976 Y-3.547 I-0.9524 J0.5008
G2 X-7.1173 Y-3.5821 I-2.8745 J1.5896
G2 X-7.1603 Y-3.6564 I-4.7719 J2.7157
G2 X-7.2198 Y-3.7558 I-8.5508 J5.045
G1 X-7.3497 Y-3.9702
G1 X-7.3799 Y-3.9728
G2 X-7.4981 Y-3.9723 I-0.0565 J0.6755
G2 X-7.5905 Y-3.954 I0.0409 J0.4481
G2 X-7.6755 Y-3.9166 I0.1217 J0.3921
G2 X-7.7555 Y-3.8577 I0.2331 J0.4001
G3 X-7.806 Y-3.8138 I-0.8355 J-0.9105
G3 X-7.8342 Y-3.7935 I-0.1705 J-0.2073
G3 X-7.872 Y-3.776 I-0.0882 J-0.141
G3 X-7.9119 Y-3.7698 I-0.0399 J-0.1256
G3 X-7.9563 Y-3.7748 I0 J-0.1989
G3 X-7.9954 Y-3.7899 I0.0327 J-0.1428
G3 X-8.0296 Y-3.817 I0.0684 J-0.1217
G3 X-8.055 Y-3.8536 I0.1183 J-0.1091
G3 X-8.0765 Y-3.9265 I0.189 J-0.0953
G3 X-8.0801 Y-3.9942 I0.6359 J-0.0677
G3 X-8.0782 Y-4.0432 I0.6395 J0
G3 X-8.0548 Y-4.2025 I1.1634 J0.0894
G3 X-8 Y-4.4027 I1.9376 J0.4227
G3 X-7.927 Y-4.596 I2.3594 J0.7806
G3 X-7.8226 Y-4.8195 I3.2801 J1.3973
G1 X-7.7378 Y-4.9856
G1 X-7.7906 Y-5.2101
G2 X-7.8151 Y-5.3107 I-6.3509 J1.4934
G2 X-7.8358 Y-5.3895 I-3.9365 J0.9918
G2 X-7.8461 Y-5.4262 I-2.4829 J0.6788
G2 X-7.8527 Y-5.4481 I-0.9274 J0.2684
G2 X-7.8584 Y-5.4649 I-0.4004 J0.1262
G2 X-7.8704 Y-5.4786 I-0.0727 J0.0519
G2 X-7.9207 Y-5.5197 I-0.355 J0.383
G2 X-7.9765 Y-5.5553 I-0.3527 J0.491
G2 X-8.0144 Y-5.573 I-0.1323 J0.2346
G2 X-8.0813 Y-5.5902 I-0.1142 J0.3052
G2 X-8.1456 Y-5.5923 I-0.0419 J0.2855
G2 X-8.2138 Y-5.5815 I0.0333 J0.4276
G2 X-8.3443 Y-5.5434 I0.357 J1.4653
G3 X-8.4518 Y-5.5083 I-1.3235 J-3.8749
G3 X-8.4866 Y-5.4995 I-0.1016 J-0.3268
G3 X-8.5323 Y-5.4968 I-0.0322 J-0.1617
G3 X-8.576 Y-5.5074 I0.012 J-0.1448
G3 X-8.6222 Y-5.5353 I0.0691 J-0.1668
G3 X-8.6544 Y-5.5753 I0.082 J-0.0989
G3 X-8.6689 Y-5.62 I0.1307 J-0.0673
G3 X-8.673 Y-5.6721 I0.3346 J-0.0521
G3 X-8.6729 Y-5.6798 I0.3386 J0
G3 X-8.6569 Y-5.7722 I0.3152 J0.0071
G3 X-8.5997 Y-5.9059 I0.8318 J0.2768
G3 X-8.5291 Y-6.0239 I1.1754 J0.6229
G3 X-8.4237 Y-6.1685 I1.9099 J1.2807
G3 X-8.1691 Y-6.451 I2.3007 J1.8173
G3 X-7.8874 Y-6.6911 I1.9366 J1.9874
G2 X-7.855 Y-6.7153 I-8.0243 J-10.8009
G2 X-7.8309 Y-6.7333 I-4.4809 J-5.9938
G2 X-7.8236 Y-6.7389 I-2.7067 J-3.5904
G2 X-7.8201 Y-6.7563 I-2.1201 J-0.4289
G2 X-7.8134 Y-6.7915 I-6.8792 J-1.3331
G2 X-7.7995 Y-6.8666 I-11.8315 J-2.2299
G2 X-7.7808 Y-6.9707 I-22.6847 J-4.1267
G1 X-7.7404 Y-7.1984
G1 X-7.7555 Y-7.2203
G2 X-7.8018 Y-7.2754 I-0.3199 J0.2217
G2 X-7.8667 Y-7.3298 I-0.3658 J0.3701
G2 X-7.9387 Y-7.3716 I-0.2664 J0.3759
G2 X-7.9873 Y-7.3871 I-0.0847 J0.1818
G2 X-7.9983 Y-7.3887 I-0.0252 J0.1382
G2 X-8.0378 Y-7.3921 I-0.1323 J1.2978
G2 X-8.0781 Y-7.3945 I-0.1376 J1.9308
G2 X-8.1193 Y-7.3962 I-0.1018 J2.0216
G3 X-8.1844 Y-7.3997 I0.0405 J-1.3537
G3 X-8.2179 Y-7.4042 I0.0236 J-0.3013
G3 X-8.2555 Y-7.4156 I0.0359 J-0.187
G3 X-8.2881 Y-7.4342 I0.0594 J-0.1418
G3 X-8.3294 Y-7.4771 I0.1095 J-0.1467
G3 X-8.3521 Y-7.5297 I0.1225 J-0.0842
G3 X-8.3557 Y-7.5625 I0.1502 J-0.0328
G3 X-8.3539 Y-7.586 I0.1538 J0
G3 X-8.3361 Y-7.6438 I0.2071 J0.032
G3 X-8.301 Y-7.6986 I0.2335 J0.1108
G3 X-8.2235 Y-7.7811 I0.7397 J0.6175
G3 X-8.139 Y-7.8545 I0.8995 J0.9509
G3 X-8.0489 Y-7.92 I0.8072 J1.0144
G3 X-7.9448 Y-7.9831 I0.8189 J1.2332
G3 X-7.7733 Y-8.0721 I1.8486 J3.3525
G3 X-7.5976 Y-8.1525 I1.7215 J3.5327
G3 X-7.4768 Y-8.1989 I0.6802 J1.5899
G1 X-7.3769 Y-8.233
G1 X-7.2698 Y-8.4522
G2 X-7.1906 Y-8.6179 I-9.3814 J-4.5847
G2 X-7.1732 Y-8.6587 I-0.5997 J-0.2801
G2 X-7.164 Y-8.6922 I-0.1587 J-0.0615
G2 X-7.1636 Y-8.6972 I-0.0302 J-0.005
G2 X-7.164 Y-8.702 I-0.0306 J0
G2 X-7.1865 Y-8.7697 I-0.2164 J0.0346
G2 X-7.2292 Y-8.8258 I-0.1902 J0.1003
G2 X-7.2919 Y-8.8717 I-0.2159 J0.2289
G2 X-7.4154 Y-8.9283 I-0.4189 J0.7513
G3 X-7.4843 Y-8.9599 I0.1656 J-0.4529
G3 X-7.5288 Y-8.9932 I0.1009 J-0.1813
G3 X-7.5635 Y-9.0441 I0.1107 J-0.1127
G3 X-7.5757 Y-9.1043 I0.1417 J-0.0602
G3 X-7.5704 Y-9.1456 I0.1612 J0
G3 X-7.5544 Y-9.1835 I0.1424 J0.0378
G3 X-7.5295 Y-9.2153 I0.1391 J0.0833
G3 X-7.4944 Y-9.2442 I0.1759 J0.1772
G3 X-7.4582 Y-9.2658 I0.1931 J0.2826
G3 X-7.4064 Y-9.2899 I0.3213 J0.623
G3 X-7.3566 Y-9.3091 I0.3937 J0.9453
G3 X-7.2833 Y-9.3339 I0.7487 J2.0998
G3 X-7.1446 Y-9.3714 I0.5019 J1.5787
G3 X-6.9286 Y-9.4137 I0.8713 J3.878
G3 X-6.7104 Y-9.4436 I0.6192 J3.7045
G3 X-6.5851 Y-9.4504 I0.1253 J1.1663
G1 X-6.5626 Y-9.4504
G1 X-6.3967 Y-9.6468
G3 X-6.3956 Y-9.6481 I217.3966 J183.529
G3 X-6.3934 Y-9.6507 I855.4242 J722.1687
G2 X-6.3068 Y-9.7541 I-12.4922 J-10.5463
G2 X-6.28 Y-9.7874 I-1.3051 J-1.0835
G2 X-6.2435 Y-9.8372 I-0.6696 J-0.528
G2 X-6.2321 Y-9.857 I-0.1274 J-0.0863
G2 X-6.2272 Y-9.8718 I-0.0556 J-0.0266
G2 X-6.2267 Y-9.8774 I-0.0285 J-0.0056
G2 X-6.2269 Y-9.8804 I-0.0291 J0
G2 X-6.2283 Y-9.8883 I-0.0507 J0.0052
G2 X-6.2413 Y-9.9317 I-0.7483 J0.2005
G2 X-6.2599 Y-9.9765 I-0.3149 J0.1044
G2 X-6.2822 Y-10.0132 I-0.2399 J0.1209
G2 X-6.31 Y-10.0457 I-0.2154 J0.156
G2 X-6.3462 Y-10.0766 I-0.2241 J0.2252
G3 X-6.4187 Y-10.1526 I0.1787 J-0.2434
G3 X-6.4446 Y-10.2353 I0.1281 J-0.0854
G3 X-6.4446 Y-10.2377 I0.1388 J-0.0024
G3 X-6.4373 Y-10.282 I0.1389 J0
G3 X-6.4152 Y-10.3241 I0.1423 J0.0479
G3 X-6.3831 Y-10.3568 I0.1373 J0.1029
G3 X-6.3401 Y-10.3836 I0.1522 J0.1959
G3 X-6.3016 Y-10.3977 I0.0857 J0.1749
G3 X-6.2451 Y-10.4083 I0.1194 J0.4783
G3 X-6.1913 Y-10.4132 I0.0941 J0.7307
G3 X-6.1192 Y-10.4153 I0.0746 J1.3649
G3 X-5.9724 Y-10.41 I0.0036 J1.9301
G3 X-5.7839 Y-10.3904 I-0.2416 J3.2483
G1 X-5.6091 Y-10.3671
G1 X-5.3321 Y-10.5742
G2 X-5.2103 Y-10.6661 I-8.7754 J-11.7442
G2 X-5.115 Y-10.7399 I-5.568 J-7.2923
G2 X-5.0706 Y-10.7751 I-3.6117 J-4.6034
G2 X-5.0436 Y-10.797 I-1.4033 J-1.7534
G2 X-5.0173 Y-10.8195 I-0.651 J-0.7881
G2 X-5.0086 Y-10.8326 I-0.0546 J-0.0456
G2 X-5.0058 Y-10.8405 I-0.0277 J-0.0142
G2 X-5.0052 Y-10.8471 I-0.0315 J-0.0065
G2 X-5.0052 Y-10.8493 I-0.0322 J0
G2 X-5.0084 Y-10.8664 I-0.077 J0.0053
G2 X-5.0265 Y-10.9057 I-0.1503 J0.0455
G2 X-5.0966 Y-11.0003 I-0.7478 J0.4803
G3 X-5.1346 Y-11.0481 I0.7294 J-0.6188
G3 X-5.1525 Y-11.0765 I0.1792 J-0.1334
G3 X-5.1666 Y-11.1134 I0.1385 J-0.0737
G3 X-5.1713 Y-11.1532 I0.1649 J-0.0398
G3 X-5.1513 Y-11.2318 I0.1642 J0
G3 X-5.0961 Y-11.2906 I0.1407 J0.0767
G3 X-5.0289 Y-11.3184 I0.1134 J0.1798
G3 X-4.9343 Y-11.329 I0.0966 J0.4332
G3 X-4.8423 Y-11.3228 I0.0028 J0.6506
G3 X-4.7221 Y-11.2999 I-0.1648 J1.1917
G3 X-4.6024 Y-11.2656 I-0.3651 J1.4971
G3 X-4.462 Y-11.2138 I-0.7095 J2.1409
G1 X-4.3474 Y-11.1672
G1 X-4.1891 Y-11.2379
G3 X-3.3933 Y-11.5538 I4.1345 J9.254
G3 X-2.6184 Y-11.7859 I2.9779 J8.5358
G3 X-1.8257 Y-11.9471 I2.1658 J8.6198
G3 X-1.0018 Y-12.0387 I1.4424 J9.2246
G2 X-0.9263 Y-12.0437 I-5.7167 J-86.0928
G2 X-0.8594 Y-12.0482 I-4.5532 J-67.6716
G2 X-0.7926 Y-12.0529 I-2.7694 J-40.5614
G2 X-0.7746 Y-12.0542 I-0.2101 J-3.0048
G3 X-0.7542 Y-12.0554 I0.0471 J0.6195
G3 X-0.7037 Y-12.0572 I0.1797 J4.1728
G3 X-0.6535 Y-12.0586 I0.1918 J6.1974
G3 X-0.6014 Y-12.0596 I0.1525 J6.6763
G1 X-0.4764 Y-12.0615
G3 X-0.4129 Y-11.999 I0.0009 J0.0625
G1 X-0.4129 Y-11.6656
G1 X-0.4129 Y-11.3948
G1 X-0.2661 Y-11.3948
G1 X-0.0567 Y-11.3948
G3 X0.0057 Y-11.3343 I0 J0.0625
G1 X0.013 Y-11.1093
G3 X0.0152 Y-11.0153 I-5.4305 J0.1759
G3 X0.0182 Y-10.7653 I-38.7568 J0.5842
G3 X0.0198 Y-10.515 I-57.2069 J0.4933
G3 X0.0204 Y-10.2573 I-60.6676 J0.2577
G1 X0.0204 Y-9.6323
G3 X-0.0421 Y-9.5698 I-0.0625 J0
G1 X-0.2475 Y-9.5698
G1 X-0.3909 Y-9.5698
G1 X-0.3934 Y-9.2679
G1 X-0.3963 Y-8.904
G3 X-0.4532 Y-8.8423 I-0.0625 J-0.0005
G1 X-0.6015 Y-8.8289
G2 X-1.1583 Y-8.7546 I0.5851 J6.5057
G2 X-1.6691 Y-8.6394 I0.9938 J5.5978
G2 X-2.1591 Y-8.4786 I1.3862 J5.0511
G2 X-2.5878 Y-8.287 I1.5588 J4.063
G2 X-2.9907 Y-8.0488 I1.7915 J3.4896
G2 X-3.3223 Y-7.7914 I1.7713 J2.6244
G2 X-3.6169 Y-7.4875 I1.8867 J2.1238
G2 X-3.8385 Y-7.1728 I1.8111 J1.511
G2 X-4.0456 Y-6.703 I1.8967 J1.1162
G2 X-4.128 Y-6.2315 I1.8352 J0.5639
G2 X-4.1302 Y-6.1407 I1.885 J0.0908
G2 X-4.0904 Y-5.7552 I1.8872 J0
G2 X-3.93 Y-5.2833 I2.0051 J-0.4184
G2 X-3.8375 Y-5.11 I2.1744 J-1.0494
G2 X-3.7401 Y-4.9599 I1.7379 J-1.0206
G2 X-3.6299 Y-4.8183 I1.7448 J-1.2452
G2 X-3.4815 Y-4.6552 I2.4477 J-2.0765
G2 X-3.2295 Y-4.4259 I2.0234 J-1.971
G2 X-2.9248 Y-4.207 I2.1414 J-2.6598
G2 X-2.6007 Y-4.0221 I2.0266 J-3.1764
G2 X-2.2264 Y-3.8533 I2.0553 J-4.0579
G2 X-1.4342 Y-3.6095 I1.9196 J-4.8263
G1 Z-0.2 F30
G2 X-0.4855 Y-3.4665 I1.5061 J-6.7734 F60
G1 X-0.3951 Y-3.4592
G3 X-0.3378 Y-3.402 I-0.005 J0.0623
G1 X-0.3313 Y-3.3225
G3 X-0.3292 Y-3.2867 I-0.7539 J0.062
G3 X-0.3243 Y-3.1237 I-16.981 J0.5879
G3 X-0.3207 Y-2.9609 I-31.0606 J0.777
G3 X-0.3172 Y-2.7653 I-44.8537 J0.8869
G1 X-0.3108 Y-2.3484
G1 X-0.2837 Y-2.3461
G2 X-0.2511 Y-2.3438 I0.0903 J-1.0684
G2 X-0.1943 Y-2.3413 I0.1688 J-3.1303
G2 X-0.1373 Y-2.3397 I0.1274 J-3.5623
G2 X-0.0916 Y-2.3392 I0.0457 J-2.3152
G1 X0.0223 Y-2.3392
G3 X0.0847 Y-2.2797 I0 J0.0625
G1 X0.0911 Y-2.1435
G3 X0.0934 Y-2.0867 I-4.848 J0.2264
G3 X0.0975 Y-1.9611 I-23.8381 J0.8333
G3 X0.1009 Y-1.8357 I-32.1644 J0.9549
G3 X0.1038 Y-1.7158 I-29.3822 J0.7576
G1 X0.1101 Y-1.4257
G3 X0.1101 Y-1.4244 I-0.0625 J0.0014
G3 X0.0551 Y-1.3623 I-0.0625 J0
G1 X-0.0037 Y-1.3553
G3 X-0.0311 Y-1.3527 I-0.0656 J-0.5462
G3 X-0.0809 Y-1.3498 I-0.1371 J-1.9698
G3 X-0.1304 Y-1.3481 I-0.1097 J-2.4778
G3 X-0.1753 Y-1.3475 I-0.0492 J-2.0268
G2 X-0.2174 Y-1.347 I0.0038 J1.8289
G2 X-0.2592 Y-1.3454 I0.0453 J1.8073
G2 X-0.3003 Y-1.3428 I0.0599 J1.2416
G2 X-0.3019 Y-1.3426 I0.0121 J0.1481
G1 X-0.3019 Y-0.8808
G1 X-0.3019 Y-0.3656
G3 X-0.3644 Y-0.3031 I-0.0625 J0
G1 X-0.3907 Y-0.3031
G1 X-0.3907 Y-0.2778
G3 X-0.459 Y-0.2156 I-0.0625 J0
G1 X-0.5118 Y-0.2205
G2 X-0.5324 Y-0.2222 I-0.1022 J1.0985
G2 X-0.603 Y-0.2272 I-0.9085 J12.2499
G2 X-0.6738 Y-0.2319 I-1.3467 J19.6971
G2 X-0.7515 Y-0.2368 I-1.5365 J23.7241
G3 X-1.3051 Y-0.2806 I0.9735 J-15.836
G3 X-1.7823 Y-0.3365 I1.1419 J-11.809
G3 X-2.2613 Y-0.414 I1.4157 J-10.2763
G3 X-2.6822 Y-0.5037 I1.4888 J-8.0142
G3 X-3.0977 Y-0.6168 I1.721 J-7.1414
G3 X-3.473 Y-0.7441 I1.8072 J-5.945
G3 X-3.836 Y-0.8944 I2.054 J-5.4751
G3 X-4.1762 Y-1.0633 I2.2573 J-4.973
G1 X-4.3117 Y-1.1366
G1 X-4.3678 Y-1.1273
G2 X-4.4526 Y-1.105 I0.0762 J0.4612
G2 X-4.4989 Y-1.0804 I0.0669 J0.1825
G2 X-4.5348 Y-1.0455 I0.0983 J0.1371
G2 X-4.5702 Y-0.9852 I0.2315 J0.1762
G3 X-4.6111 Y-0.896 I-2.1783 J-0.9458
G3 X-4.6303 Y-0.8621 I-0.2751 J-0.1332
G3 X-4.6629 Y-0.8257 I-0.1347 J-0.088
G3 X-4.7046 Y-0.8028 I-0.0819 J-0.0997
G3 X-4.7716 Y-0.7969 I-0.0462 J-0.1408
G3 X-4.8345 Y-0.821 I0.0212 J-0.1494
G3 X-4.8789 Y-0.8613 I0.1151 J-0.1714
G3 X-4.9272 Y-0.931 I0.4014 J-0.33
G3 X-4.9789 Y-1.036 I0.7547 J-0.437
G3 X-5.0156 Y-1.1456 I0.7855 J-0.3233
G3 X-5.0382 Y-1.2577 I1.0048 J-0.2612
G3 X-5.0556 Y-1.4201 I2.1649 J-0.314
G1 X-5.0612 Y-1.5007
G1 X-5.2485 Y-1.6439
G2 X-5.3349 Y-1.7095 I-9.6961 J12.6824
G2 X-5.4031 Y-1.7605 I-5.9346 J7.8727
G2 X-5.4354 Y-1.7842 I-3.717 J5.0205
G2 X-5.4552 Y-1.7985 I-1.3939 J1.9082
G2 X-5.4731 Y-1.811 I-0.6166 J0.8627
G2 X-5.4935 Y-1.8146 I-0.0524 J0.2383
G2 X-5.5196 Y-1.8172 I-0.0528 J0.3991
G2 X-5.5478 Y-1.8182 I-0.0302 J0.4563
G2 X-5.5866 Y-1.8166 I-0.0019 J0.4294
G2 X-5.6086 Y-1.8133 I0.0144 J0.1675
G2 X-5.6291 Y-1.8067 I0.026 J0.1173
G2 X-5.6459 Y-1.7977 I0.0388 J0.0925
G2 X-5.6621 Y-1.7849 I0.0688 J0.1031
G2 X-5.685 Y-1.7604 I0.1838 J0.1954
G2 X-5.7053 Y-1.7338 I0.3256 J0.2691
G2 X-5.7373 Y-1.6856 I0.9503 J0.6665
G3 X-5.7727 Y-1.6377 I-0.3414 J-0.2149
G3 X-5.811 Y-1.6002 I-0.2337 J-0.2007
G3 X-5.8594 Y-1.5697 I-0.1452 J-0.177
G3 X-5.9093 Y-1.5587 I-0.0499 J-0.107
G3 X-5.9619 Y-1.5691 I0 J-0.137
G3 X-6.0118 Y-1.5987 I0.0789 J-0.1903
G3 X-6.0508 Y-1.638 I0.1526 J-0.1904
G3 X-6.0813 Y-1.6866 I0.2117 J-0.1668
G3 X-6.1051 Y-1.7503 I0.3172 J-0.1549
G3 X-6.1246 Y-1.8456 I0.7829 J-0.2094
G3 X-6.1353 Y-1.9388 I1.739 J-0.2473
G3 X-6.1537 Y-2.1754 I11.5589 J-1.0181
G1 X-6.1678 Y-2.384
G1 X-6.3119 Y-2.5387
G1 X-6.453 Y-2.6901
G1 X-6.5156 Y-2.6909
G2 X-6.6398 Y-2.6811 I-0.0086 J0.682
G2 X-6.7078 Y-2.6593 I0.0433 J0.2518
G2 X-6.7616 Y-2.6208 I0.0852 J0.1762
G2 X-6.8102 Y-2.5546 I0.1984 J0.1964
G3 X-6.8297 Y-2.5187 I-1.3893 J-0.7325
G3 X-6.8413 Y-2.4992 I-0.3785 J-0.2123
G3 X-6.8584 Y-2.4751 I-0.2328 J-0.1471
G3 X-6.8756 Y-2.4569 I-0.1114 J-0.0884
G3 X-6.8992 Y-2.4406 I-0.08 J-0.0905
G3 X-6.926 Y-2.4304 I-0.056 J-0.106
G3 X-6.9471 Y-2.4268 I-0.0338 J-0.1344
G3 X-6.9735 Y-2.4255 I-0.0277 J-0.3029
G3 X-7.0346 Y-2.4396 I-0.0006 J-0.1368
G3 X-7.0881 Y-2.479 I0.0833 J-0.169
G3 X-7.1246 Y-2.5291 I0.1758 J-0.1668
G3 X-7.1528 Y-2.5952 I0.3177 J-0.1745
G3 X-7.1678 Y-2.6591 I0.4274 J-0.1339
G3 X-7.1783 Y-2.7535 I1.0141 J-0.1605
G3 X-7.1812 Y-2.8437 I1.399 J-0.0902
G1 X-7.1812 Y-2.8438
G3 X-7.1783 Y-2.954 I2.1114 J0.0002
G3 X-7.1555 Y-3.1846 I2.5092 J0.1313
G3 X-7.1136 Y-3.3983 I2.188 J0.3185
G2 X-7.1004 Y-3.4527 I-5.2049 J-1.2908
G2 X-7.0907 Y-3.4949 I-3.1525 J-0.747
G2 X-7.0863 Y-3.5148 I-1.982 J-0.4418
G2 X-7.0847 Y-3.5229 I-0.7276 J-0.1545
G2 X-7.0868 Y-3.5271 I-0.5129 J0.2644
G2 X-7.0976 Y-3.547 I-0.9524 J0.5008
G2 X-7.1173 Y-3.5821 I-2.8745 J1.5896
G2 X-7.1603 Y-3.6564 I-4.7719 J2.7157
G2 X-7.2198 Y-3.7558 I-8.5508 J5.045
G1 X-7.3497 Y-3.9702
G1 X-7.3799 Y-3.9728
G2 X-7.4981 Y-3.9723 I-0.0565 J0.6755
G2 X-7.5905 Y-3.954 I0.0409 J0.4481
G2 X-7.6755 Y-3.9166 I0.1217 J0.3921
G2 X-7.7555 Y-3.8577 I0.2331 J0.4001
G3 X-7.806 Y-3.8138 I-0.8355 J-0.9105
G3 X-7.8342 Y-3.7935 I-0.1705 J-0.2073
G3 X-7.872 Y-3.776 I-0.0882 J-0.141
G3 X-7.9119 Y-3.7698 I-0.0399 J-0.1256
G3 X-7.9563 Y-3.7748 I0 J-0.1989
G3 X-7.9954 Y-3.7899 I0.0327 J-0.1428
G3 X-8.0296 Y-3.817 I0.0684 J-0.1217
G3 X-8.055 Y-3.8536 I0.1183 J-0.1091
G3 X-8.0765 Y-3.9265 I0.189 J-0.0953
G3 X-8.0801 Y-3.9942 I0.6359 J-0.0677
G3 X-8.0782 Y-4.0432 I0.6395 J0
G3 X-8.0548 Y-4.2025 I1.1634 J0.0894
G3 X-8 Y-4.4027 I1.9376 J0.4227
G3 X-7.927 Y-4.596 I2.3594 J0.7806
G3 X-7.8226 Y-4.8195 I3.2801 J1.3973
G1 X-7.7378 Y-4.9856
G1 X-7.7906 Y-5.2101
G2 X-7.8151 Y-5.3107 I-6.3509 J1.4934
G2 X-7.8358 Y-5.3895 I-3.9365 J0.9918
G2 X-7.8461 Y-5.4262 I-2.4829 J0.6788
G2 X-7.8527 Y-5.4481 I-0.9274 J0.2684
G2 X-7.8584 Y-5.4649 I-0.4004 J0.1262
G2 X-7.8704 Y-5.4786 I-0.0727 J0.0519
G2 X-7.9207 Y-5.5197 I-0.355 J0.383
G2 X-7.9765 Y-5.5553 I-0.3527 J0.491
G2 X-8.0144 Y-5.573 I-0.1323 J0.2346
G2 X-8.0813 Y-5.5902 I-0.1142 J0.3052
G2 X-8.1456 Y-5.5923 I-0.0419 J0.2855
G2 X-8.2138 Y-5.5815 I0.0333 J0.4276
G2 X-8.3443 Y-5.5434 I0.357 J1.4653
G3 X-8.4518 Y-5.5083 I-1.3235 J-3.8749
G3 X-8.4866 Y-5.4995 I-0.1016 J-0.3268
G3 X-8.5323 Y-5.4968 I-0.0322 J-0.1617
G3 X-8.576 Y-5.5074 I0.012 J-0.1448
G3 X-8.6222 Y-5.5353 I0.0691 J-0.1668
G3 X-8.6544 Y-5.5753 I0.082 J-0.0989
G3 X-8.6689 Y-5.62 I0.1307 J-0.0673
G3 X-8.673 Y-5.6721 I0.3346 J-0.0521
G3 X-8.6729 Y-5.6798 I0.3386 J0
G3 X-8.6569 Y-5.7722 I0.3152 J0.0071
G3 X-8.5997 Y-5.9059 I0.8318 J0.2768
G3 X-8.5291 Y-6.0239 I1.1754 J0.6229
G3 X-8.4237 Y-6.1685 I1.9099 J1.2807
G3 X-8.1691 Y-6.451 I2.3007 J1.8173
G3 X-7.8874 Y-6.6911 I1.9366 J1.9874
G2 X-7.855 Y-6.7153 I-8.0243 J-10.8009
G2 X-7.8309 Y-6.7333 I-4.4809 J-5.9938
G2 X-7.8236 Y-6.7389 I-2.7067 J-3.5904
G2 X-7.8201 Y-6.7563 I-2.1201 J-0.4289
G2 X-7.8134 Y-6.7915 I-6.8792 J-1.3331
G2 X-7.7995 Y-6.8666 I-11.8315 J-2.2299
G2 X-7.7808 Y-6.9707 I-22.6847 J-4.1267
G1 X-7.7404 Y-7.1984
G1 X-7.7555 Y-7.2203
G2 X-7.8018 Y-7.2754 I-0.3199 J0.2217
G2 X-7.8667 Y-7.3298 I-0.3658 J0.3701
G2 X-7.9387 Y-7.3716 I-0.2664 J0.3759
G2 X-7.9873 Y-7.3871 I-0.0847 J0.1818
G2 X-7.9983 Y-7.3887 I-0.0252 J0.1382
G2 X-8.0378 Y-7.3921 I-0.1323 J1.2978
G2 X-8.0781 Y-7.3945 I-0.1376 J1.9308
G2 X-8.1193 Y-7.3962 I-0.1018 J2.0216
G3 X-8.1844 Y-7.3997 I0.0405 J-1.3537
G3 X-8.2179 Y-7.4042 I0.0236 J-0.3013
G3 X-8.2555 Y-7.4156 I0.0359 J-0.187
G3 X-8.2881 Y-7.4342 I0.0594 J-0.1418
G3 X-8.3294 Y-7.4771 I0.1095 J-0.1467
G3 X-8.3521 Y-7.5297 I0.1225 J-0.0842
G3 X-8.3557 Y-7.5625 I0.1502 J-0.0328
G3 X-8.3539 Y-7.586 I0.1538 J0
G3 X-8.3361 Y-7.6438 I0.2071 J0.032
G3 X-8.301 Y-7.6986 I0.2335 J0.1108
G3 X-8.2235 Y-7.7811 I0.7397 J0.6175
G3 X-8.139 Y-7.8545 I0.8995 J0.9509
G3 X-8.0489 Y-7.92 I0.8072 J1.0144
G3 X-7.9448 Y-7.9831 I0.8189 J1.2332
G3 X-7.7733 Y-8.0721 I1.8486 J3.3525
G3 X-7.5976 Y-8.1525 I1.7215 J3.5327
G3 X-7.4768 Y-8.1989 I0.6802 J1.5899
G1 X-7.3769 Y-8.233
G1 X-7.2698 Y-8.4522
G2 X-7.1906 Y-8.6179 I-9.3814 J-4.5847
G2 X-7.1732 Y-8.6587 I-0.5997 J-0.2801
G2 X-7.164 Y-8.6922 I-0.1587 J-0.0615
G2 X-7.1636 Y-8.6972 I-0.0302 J-0.005
G2 X-7.164 Y-8.702 I-0.0306 J0
G2 X-7.1865 Y-8.7697 I-0.2164 J0.0346
G2 X-7.2292 Y-8.8258 I-0.1902 J0.1003
G2 X-7.2919 Y-8.8717 I-0.2159 J0.2289
G2 X-7.4154 Y-8.9283 I-0.4189 J0.7513
G3 X-7.4843 Y-8.9599 I0.1656 J-0.4529
G3 X-7.5288 Y-8.9932 I0.1009 J-0.1813
G3 X-7.5635 Y-9.0441 I0.1107 J-0.1127
G3 X-7.5757 Y-9.1043 I0.1417 J-0.0602
G3 X-7.5704 Y-9.1456 I0.1612 J0
G3 X-7.5544 Y-9.1835 I0.1424 J0.0378
G3 X-7.5295 Y-9.2153 I0.1391 J0.0833
G3 X-7.4944 Y-9.2442 I0.1759 J0.1772
G3 X-7.4582 Y-9.2658 I0.1931 J0.2826
G3 X-7.4064 Y-9.2899 I0.3213 J0.623
G3 X-7.3566 Y-9.3091 I0.3937 J0.9453
G3 X-7.2833 Y-9.3339 I0.7487 J2.0998
G3 X-7.1446 Y-9.3714 I0.5019 J1.5787
G3 X-6.9286 Y-9.4137 I0.8713 J3.878
G3 X-6.7104 Y-9.4436 I0.6192 J3.7045
G3 X-6.5851 Y-9.4504 I0.1253 J1.1663
G1 X-6.5626 Y-9.4504
G1 X-6.3967 Y-9.6468
G3 X-6.3956 Y-9.6481 I217.3966 J183.529
G3 X-6.3934 Y-9.6507 I855.4242 J722.1687
G2 X-6.3068 Y-9.7541 I-12.4922 J-10.5463
G2 X-6.28 Y-9.7874 I-1.3051 J-1.0835
G2 X-6.2435 Y-9.8372 I-0.6696 J-0.528
G2 X-6.2321 Y-9.857 I-0.1274 J-0.0863
G2 X-6.2272 Y-9.8718 I-0.0556 J-0.0266
G2 X-6.2267 Y-9.8774 I-0.0285 J-0.0056
G2 X-6.2269 Y-9.8804 I-0.0291 J0
G2 X-6.2283 Y-9.8883 I-0.0507 J0.0052
G2 X-6.2413 Y-9.9317 I-0.7483 J0.2005
G2 X-6.2599 Y-9.9765 I-0.3149 J0.1044
G2 X-6.2822 Y-10.0132 I-0.2399 J0.1209
G2 X-6.31 Y-10.0457 I-0.2154 J0.156
G2 X-6.3462 Y-10.0766 I-0.2241 J0.2252
G3 X-6.4187 Y-10.1526 I0.1787 J-0.2434
G3 X-6.4446 Y-10.2353 I0.1281 J-0.0854
G3 X-6.4446 Y-10.2377 I0.1388 J-0.0024
G3 X-6.4373 Y-10.282 I0.1389 J0
G3 X-6.4152 Y-10.3241 I0.1423 J0.0479
G3 X-6.3831 Y-10.3568 I0.1373 J0.1029
G3 X-6.3401 Y-10.3836 I0.1522 J0.1959
G3 X-6.3016 Y-10.3977 I0.0857 J0.1749
G3 X-6.2451 Y-10.4083 I0.1194 J0.4783
G3 X-6.1913 Y-10.4132 I0.0941 J0.7307
G3 X-6.1192 Y-10.4153 I0.0746 J1.3649
G3 X-5.9724 Y-10.41 I0.0036 J1.9301
G3 X-5.7839 Y-10.3904 I-0.2416 J3.2483
G1 X-5.6091 Y-10.3671
G1 X-5.3321 Y-10.5742
G2 X-5.2103 Y-10.6661 I-8.7754 J-11.7442
G2 X-5.115 Y-10.7399 I-5.568 J-7.2923
G2 X-5.0706 Y-10.7751 I-3.6117 J-4.6034
G2 X-5.0436 Y-10.797 I-1.4033 J-1.7534
G2 X-5.0173 Y-10.8195 I-0.651 J-0.7881
G2 X-5.0086 Y-10.8326 I-0.0546 J-0.0456
G2 X-5.0058 Y-10.8405 I-0.0277 J-0.0142
G2 X-5.0052 Y-10.8471 I-0.0315 J-0.0065
G2 X-5.0052 Y-10.8493 I-0.0322 J0
G2 X-5.0084 Y-10.8664 I-0.077 J0.0053
G2 X-5.0265 Y-10.9057 I-0.1503 J0.0455
G2 X-5.0966 Y-11.0003 I-0.7478 J0.4803
G3 X-5.1346 Y-11.0481 I0.7294 J-0.6188
G3 X-5.1525 Y-11.0765 I0.1792 J-0.1334
G3 X-5.1666 Y-11.1134 I0.1385 J-0.0737
G3 X-5.1713 Y-11.1532 I0.1649 J-0.0398
G3 X-5.1513 Y-11.2318 I0.1642 J0
G3 X-5.0961 Y-11.2906 I0.1407 J0.0767
G3 X-5.0289 Y-11.3184 I0.1134 J0.1798
G3 X-4.9343 Y-11.329 I0.0966 J0.4332
G3 X-4.8423 Y-11.3228 I0.0028 J0.6506
G3 X-4.7221 Y-11.2999 I-0.1648 J1.1917
G3 X-4.6024 Y-11.2656 I-0.3651 J1.4971
G3 X-4.462 Y-11.2138 I-0.7095 J2.1409
G1 X-4.3474 Y-11.1672
G1 X-4.1891 Y-11.2379
G3 X-3.3933 Y-11.5538 I4.1345 J9.254
G3 X-2.6184 Y-11.7859 I2.9779 J8.5358
G3 X-1.8257 Y-11.9471 I2.1658 J8.6198
G3 X-1.0018 Y-12.0387 I1.4424 J9.2246
G2 X-0.9263 Y-12.0437 I-5.7167 J-86.0928
G2 X-0.8594 Y-12.0482 I-4.5532 J-67.6716
G2 X-0.7926 Y-12.0529 I-2.7694 J-40.5614
G2 X-0.7746 Y-12.0542 I-0.2101 J-3.0048
G3 X-0.7542 Y-12.0554 I0.0471 J0.6195
G3 X-0.7037 Y-12.0572 I0.1797 J4.1728
G3 X-0.6535 Y-12.0586 I0.1918 J6.1974
G3 X-0.6014 Y-12.0596 I0.1525 J6.6763
G1 X-0.4764 Y-12.0615
G3 X-0.4129 Y-11.999 I0.0009 J0.0625
G1 X-0.4129 Y-11.6656
G1 X-0.4129 Y-11.3948
G1 X-0.2661 Y-11.3948
G1 X-0.0567 Y-11.3948
G3 X0.0057 Y-11.3343 I0 J0.0625
G1 X0.013 Y-11.1093
G3 X0.0152 Y-11.0153 I-5.4305 J0.1759
G3 X0.0182 Y-10.7653 I-38.7568 J0.5842
G3 X0.0198 Y-10.515 I-57.2069 J0.4933
G3 X0.0204 Y-10.2573 I-60.6676 J0.2577
G1 X0.0204 Y-9.6323
G3 X-0.0421 Y-9.5698 I-0.0625 J0
G1 X-0.2475 Y-9.5698
G1 X-0.3909 Y-9.5698
G1 X-0.3934 Y-9.2679
G1 X-0.3963 Y-8.904
G3 X-0.4532 Y-8.8423 I-0.0625 J-0.0005
G1 X-0.6015 Y-8.8289
G2 X-1.1583 Y-8.7546 I0.5851 J6.5057
G2 X-1.6691 Y-8.6394 I0.9938 J5.5978
G2 X-2.1591 Y-8.4786 I1.3862 J5.0511
G2 X-2.5878 Y-8.287 I1.5588 J4.063
G2 X-2.9907 Y-8.0488 I1.7915 J3.4896
G2 X-3.3223 Y-7.7914 I1.7713 J2.6244
G2 X-3.6169 Y-7.4875 I1.8867 J2.1238
G2 X-3.8385 Y-7.1728 I1.8111 J1.511
G2 X-4.0456 Y-6.703 I1.8967 J1.1162
G2 X-4.128 Y-6.2315 I1.8352 J0.5639
G2 X-4.1302 Y-6.1407 I1.885 J0.0908
G2 X-4.0904 Y-5.7552 I1.8872 J0
G2 X-3.93 Y-5.2833 I2.0051 J-0.4184
G2 X-3.8375 Y-5.11 I2.1744 J-1.0494
G2 X-3.7401 Y-4.9599 I1.7379 J-1.0206
G2 X-3.6299 Y-4.8183 I1.7448 J-1.2452
G2 X-3.4815 Y-4.6552 I2.4477 J-2.0765
G2 X-3.2295 Y-4.4259 I2.0234 J-1.971
G2 X-2.9248 Y-4.207 I2.1414 J-2.6598
G2 X-2.6007 Y-4.0221 I2.0266 J-3.1764
G2 X-2.2264 Y-3.8533 I2.0553 J-4.0579
G2 X-1.4342 Y-3.6095 I1.9196 J-4.8263
G1 Z-0.3 F30
G2 X-0.4855 Y-3.4665 I1.5061 J-6.7734 F60
G1 X-0.3951 Y-3.4592
G3 X-0.3378 Y-3.402 I-0.005 J0.0623
G1 X-0.3313 Y-3.3225
G3 X-0.3292 Y-3.2867 I-0.7539 J0.062
G3 X-0.3243 Y-3.1237 I-16.981 J0.5879
G3 X-0.3207 Y-2.9609 I-31.0606 J0.777
G3 X-0.3172 Y-2.7653 I-44.8537 J0.8869
G1 X-0.3108 Y-2.3484
G1 X-0.2837 Y-2.3461
G2 X-0.2511 Y-2.3438 I0.0903 J-1.0684
G2 X-0.1943 Y-2.3413 I0.1688 J-3.1303
G2 X-0.1373 Y-2.3397 I0.1274 J-3.5623
G2 X-0.0916 Y-2.3392 I0.0457 J-2.3152
G1 X0.0223 Y-2.3392
G3 X0.0847 Y-2.2797 I0 J0.0625
G1 X0.0911 Y-2.1435
G3 X0.0934 Y-2.0867 I-4.848 J0.2264
G3 X0.0975 Y-1.9611 I-23.8381 J0.8333
G3 X0.1009 Y-1.8357 I-32.1644 J0.9549
G3 X0.1038 Y-1.7158 I-29.3822 J0.7576
G1 X0.1101 Y-1.4257
G3 X0.1101 Y-1.4244 I-0.0625 J0.0014
G3 X0.0551 Y-1.3623 I-0.0625 J0
G1 X-0.0037 Y-1.3553
G3 X-0.0311 Y-1.3527 I-0.0656 J-0.5462
G3 X-0.0809 Y-1.3498 I-0.1371 J-1.9698
G3 X-0.1304 Y-1.3481 I-0.1097 J-2.4778
G3 X-0.1753 Y-1.3475 I-0.0492 J-2.0268
G2 X-0.2174 Y-1.347 I0.0038 J1.8289
G2 X-0.2592 Y-1.3454 I0.0453 J1.8073
G2 X-0.3003 Y-1.3428 I0.0599 J1.2416
G2 X-0.3019 Y-1.3426 I0.0121 J0.1481
G1 X-0.3019 Y-0.8808
G1 X-0.3019 Y-0.3656
G3 X-0.3644 Y-0.3031 I-0.0625 J0
G1 X-0.3907 Y-0.3031
G1 X-0.3907 Y-0.2778
G3 X-0.459 Y-0.2156 I-0.0625 J0
G1 X-0.5118 Y-0.2205
G2 X-0.5324 Y-0.2222 I-0.1022 J1.0985
G2 X-0.603 Y-0.2272 I-0.9085 J12.2499
G2 X-0.6738 Y-0.2319 I-1.3467 J19.6971
G2 X-0.7515 Y-0.2368 I-1.5365 J23.7241
G3 X-1.3051 Y-0.2806 I0.9735 J-15.836
G3 X-1.7823 Y-0.3365 I1.1419 J-11.809
G3 X-2.2613 Y-0.414 I1.4157 J-10.2763
G3 X-2.6822 Y-0.5037 I1.4888 J-8.0142
G3 X-3.0977 Y-0.6168 I1.721 J-7.1414
G3 X-3.473 Y-0.7441 I1.8072 J-5.945
G3 X-3.836 Y-0.8944 I2.054 J-5.4751
G3 X-4.1762 Y-1.0633 I2.2573 J-4.973
G1 X-4.3117 Y-1.1366
G1 X-4.3678 Y-1.1273
G2 X-4.4526 Y-1.105 I0.0762 J0.4612
G2 X-4.4989 Y-1.0804 I0.0669 J0.1825
G2 X-4.5348 Y-1.0455 I0.0983 J0.1371
G2 X-4.5702 Y-0.9852 I0.2315 J0.1762
G3 X-4.6111 Y-0.896 I-2.1783 J-0.9458
G3 X-4.6303 Y-0.8621 I-0.2751 J-0.1332
G3 X-4.6629 Y-0.8257 I-0.1347 J-0.088
G3 X-4.7046 Y-0.8028 I-0.0819 J-0.0997
G3 X-4.7716 Y-0.7969 I-0.0462 J-0.1408
G3 X-4.8345 Y-0.821 I0.0212 J-0.1494
G3 X-4.8789 Y-0.8613 I0.1151 J-0.1714
G3 X-4.9272 Y-0.931 I0.4014 J-0.33
G3 X-4.9789 Y-1.036 I0.7547 J-0.437
G3 X-5.0156 Y-1.1456 I0.7855 J-0.3233
G3 X-5.0382 Y-1.2577 I1.0048 J-0.2612
G3 X-5.0556 Y-1.4201 I2.1649 J-0.314
G1 X-5.0612 Y-1.5007
G1 X-5.2485 Y-1.6439
G2 X-5.3349 Y-1.7095 I-9.6961 J12.6824
G2 X-5.4031 Y-1.7605 I-5.9346 J7.8727
G2 X-5.4354 Y-1.7842 I-3.717 J5.0205
G2 X-5.4552 Y-1.7985 I-1.3939 J1.9082
G2 X-5.4731 Y-1.811 I-0.6166 J0.8627
G2 X-5.4935 Y-1.8146 I-0.0524 J0.2383
G2 X-5.5196 Y-1.8172 I-0.0528 J0.3991
G2 X-5.5478 Y-1.8182 I-0.0302 J0.4563
G2 X-5.5866 Y-1.8166 I-0.0019 J0.4294
G2 X-5.6086 Y-1.8133 I0.0144 J0.1675
G2 X-5.6291 Y-1.8067 I0.026 J0.1173
G2 X-5.6459 Y-1.7977 I0.0388 J0.0925
G2 X-5.6621 Y-1.7849 I0.0688 J0.1031
G2 X-5.685 Y-1.7604 I0.1838 J0.1954
G2 X-5.7053 Y-1.7338 I0.3256 J0.2691
G2 X-5.7373 Y-1.6856 I0.9503 J0.6665
G3 X-5.7727 Y-1.6377 I-0.3414 J-0.2149
G3 X-5.811 Y-1.6002 I-0.2337 J-0.2007
G3 X-5.8594 Y-1.5697 I-0.1452 J-0.177
G3 X-5.9093 Y-1.5587 I-0.0499 J-0.107
G3 X-5.9619 Y-1.5691 I0 J-0.137
G3 X-6.0118 Y-1.5987 I0.0789 J-0.1903
G3 X-6.0508 Y-1.638 I0.1526 J-0.1904
G3 X-6.0813 Y-1.6866 I0.2117 J-0.1668
G3 X-6.1051 Y-1.7503 I0.3172 J-0.1549
G3 X-6.1246 Y-1.8456 I0.7829 J-0.2094
G3 X-6.1353 Y-1.9388 I1.739 J-0.2473
G3 X-6.1537 Y-2.1754 I11.5589 J-1.0181
G1 X-6.1678 Y-2.384
G1 X-6.3119 Y-2.5387
G1 X-6.453 Y-2.6901
G1 X-6.5156 Y-2.6909
G2 X-6.6398 Y-2.6811 I-0.0086 J0.682
G2 X-6.7078 Y-2.6593 I0.0433 J0.2518
G2 X-6.7616 Y-2.6208 I0.0852 J0.1762
G2 X-6.8102 Y-2.5546 I0.1984 J0.1964
G3 X-6.8297 Y-2.5187 I-1.3893 J-0.7325
G3 X-6.8413 Y-2.4992 I-0.3785 J-0.2123
G3 X-6.8584 Y-2.4751 I-0.2328 J-0.1471
G3 X-6.8756 Y-2.4569 I-0.1114 J-0.0884
G3 X-6.8992 Y-2.4406 I-0.08 J-0.0905
G3 X-6.926 Y-2.4304 I-0.056 J-0.106
G3 X-6.9471 Y-2.4268 I-0.0338 J-0.1344
G3 X-6.9735 Y-2.4255 I-0.0277 J-0.3029
G3 X-7.0346 Y-2.4396 I-0.0006 J-0.1368
G3 X-7.0881 Y-2.479 I0.0833 J-0.169
G3 X-7.1246 Y-2.5291 I0.1758 J-0.1668
G3 X-7.1528 Y-2.5952 I0.3177 J-0.1745
G3 X-7.1678 Y-2.6591 I0.4274 J-0.1339
G3 X-7.1783 Y-2.7535 I1.0141 J-0.1605
G3 X-7.1812 Y-2.8437 I1.399 J-0.0902
G1 X-7.1812 Y-2.8438
G3 X-7.1783 Y-2.954 I2.1114 J0.0002
G3 X-7.1555 Y-3.1846 I2.5092 J0.1313
G3 X-7.1136 Y-3.3983 I2.188 J0.3185
G2 X-7.1004 Y-3.4527 I-5.2049 J-1.2908
G2 X-7.0907 Y-3.4949 I-3.1525 J-0.747
G2 X-7.0863 Y-3.5148 I-1.982 J-0.4418
G2 X-7.0847 Y-3.5229 I-0.7276 J-0.1545
G2 X-7.0868 Y-3.5271 I-0.5129 J0.2644
G2 X-7.0976 Y-3.547 I-0.9524 J0.5008
G2 X-7.1173 Y-3.5821 I-2.8745 J1.5896
G2 X-7.1603 Y-3.6564 I-4.7719 J2.7157
G2 X-7.2198 Y-3.7558 I-8.5508 J5.045
G1 X-7.3497 Y-3.9702
G1 X-7.3799 Y-3.9728
G2 X-7.4981 Y-3.9723 I-0.0565 J0.6755
G2 X-7.5905 Y-3.954 I0.0409 J0.4481
G2 X-7.6755 Y-3.9166 I0.1217 J0.3921
G2 X-7.7555 Y-3.8577 I0.2331 J0.4001
G3 X-7.806 Y-3.8138 I-0.8355 J-0.9105
G3 X-7.8342 Y-3.7935 I-0.1705 J-0.2073
G3 X-7.872 Y-3.776 I-0.0882 J-0.141
G3 X-7.9119 Y-3.7698 I-0.0399 J-0.1256
G3 X-7.9563 Y-3.7748 I0 J-0.1989
G3 X-7.9954 Y-3.7899 I0.0327 J-0.1428
G3 X-8.0296 Y-3.817 I0.0684 J-0.1217
G3 X-8.055 Y-3.8536 I0.1183 J-0.1091
G3 X-8.0765 Y-3.9265 I0.189 J-0.0953
G3 X-8.0801 Y-3.9942 I0.6359 J-0.0677
G3 X-8.0782 Y-4.0432 I0.6395 J0
G3 X-8.0548 Y-4.2025 I1.1634 J0.0894
G3 X-8 Y-4.4027 I1.9376 J0.4227
G3 X-7.927 Y-4.596 I2.3594 J0.7806
G3 X-7.8226 Y-4.8195 I3.2801 J1.3973
G1 X-7.7378 Y-4.9856
G1 X-7.7906 Y-5.2101
G2 X-7.8151 Y-5.3107 I-6.3509 J1.4934
G2 X-7.8358 Y-5.3895 I-3.9365 J0.9918
G2 X-7.8461 Y-5.4262 I-2.4829 J0.6788
G2 X-7.8527 Y-5.4481 I-0.9274 J0.2684
G2 X-7.8584 Y-5.4649 I-0.4004 J0.1262
G2 X-7.8704 Y-5.4786 I-0.0727 J0.0519
G2 X-7.9207 Y-5.5197 I-0.355 J0.383
G2 X-7.9765 Y-5.5553 I-0.3527 J0.491
G2 X-8.0144 Y-5.573 I-0.1323 J0.2346
G2 X-8.0813 Y-5.5902 I-0.1142 J0.3052
G2 X-8.1456 Y-5.5923 I-0.0419 J0.2855
G2 X-8.2138 Y-5.5815 I0.0333 J0.4276
G2 X-8.3443 Y-5.5434 I0.357 J1.4653
G3 X-8.4518 Y-5.5083 I-1.3235 J-3.8749
G3 X-8.4866 Y-5.4995 I-0.1016 J-0.3268
G3 X-8.5323 Y-5.4968 I-0.0322 J-0.1617
G3 X-8.576 Y-5.5074 I0.012 J-0.1448
G3 X-8.6222 Y-5.5353 I0.0691 J-0.1668
G3 X-8.6544 Y-5.5753 I0.082 J-0.0989
G3 X-8.6689 Y-5.62 I0.1307 J-0.0673
G3 X-8.673 Y-5.6721 I0.3346 J-0.0521
G3 X-8.6729 Y-5.6798 I0.3386 J0
G3 X-8.6569 Y-5.7722 I0.3152 J0.0071
G3 X-8.5997 Y-5.9059 I0.8318 J0.2768
G3 X-8.5291 Y-6.0239 I1.1754 J0.6229
G3 X-8.4237 Y-6.1685 I1.9099 J1.2807
G3 X-8.1691 Y-6.451 I2.3007 J1.8173
G3 X-7.8874 Y-6.6911 I1.9366 J1.9874
G2 X-7.855 Y-6.7153 I-8.0243 J-10.8009
G2 X-7.8309 Y-6.7333 I-4.4809 J-5.9938
G2 X-7.8236 Y-6.7389 I-2.7067 J-3.5904
G2 X-7.8201 Y-6.7563 I-2.1201 J-0.4289
G2 X-7.8134 Y-6.7915 I-6.8792 J-1.3331
G2 X-7.7995 Y-6.8666 I-11.8315 J-2.2299
G2 X-7.7808 Y-6.9707 I-22.6847 J-4.1267
G1 X-7.7404 Y-7.1984
G1 X-7.7555 Y-7.2203
G2 X-7.8018 Y-7.2754 I-0.3199 J0.2217
G2 X-7.8667 Y-7.3298 I-0.3658 J0.3701
G2 X-7.9387 Y-7.3716 I-0.2664 J0.3759
G2 X-7.9873 Y-7.3871 I-0.0847 J0.1818
G2 X-7.9983 Y-7.3887 I-0.0252 J0.1382
G2 X-8.0378 Y-7.3921 I-0.1323 J1.2978
G2 X-8.0781 Y-7.3945 I-0.1376 J1.9308
G2 X-8.1193 Y-7.3962 I-0.1018 J2.0216
G3 X-8.1844 Y-7.3997 I0.0405 J-1.3537
G3 X-8.2179 Y-7.4042 I0.0236 J-0.3013
G3 X-8.2555 Y-7.4156 I0.0359 J-0.187
G3 X-8.2881 Y-7.4342 I0.0594 J-0.1418
G3 X-8.3294 Y-7.4771 I0.1095 J-0.1467
G3 X-8.3521 Y-7.5297 I0.1225 J-0.0842
G3 X-8.3557 Y-7.5625 I0.1502 J-0.0328
G3 X-8.3539 Y-7.586 I0.1538 J0
G3 X-8.3361 Y-7.6438 I0.2071 J0.032
G3 X-8.301 Y-7.6986 I0.2335 J0.1108
G3 X-8.2235 Y-7.7811 I0.7397 J0.6175
G3 X-8.139 Y-7.8545 I0.8995 J0.9509
G3 X-8.0489 Y-7.92 I0.8072 J1.0144
G3 X-7.9448 Y-7.9831 I0.8189 J1.2332
G3 X-7.7733 Y-8.0721 I1.8486 J3.3525
G3 X-7.5976 Y-8.1525 I1.7215 J3.5327
G3 X-7.4768 Y-8.1989 I0.6802 J1.5899
G1 X-7.3769 Y-8.233
G1 X-7.2698 Y-8.4522
G2 X-7.1906 Y-8.6179 I-9.3814 J-4.5847
G2 X-7.1732 Y-8.6587 I-0.5997 J-0.2801
G2 X-7.164 Y-8.6922 I-0.1587 J-0.0615
G2 X-7.1636 Y-8.6972 I-0.0302 J-0.005
G2 X-7.164 Y-8.702 I-0.0306 J0
G2 X-7.1865 Y-8.7697 I-0.2164 J0.0346
G2 X-7.2292 Y-8.8258 I-0.1902 J0.1003
G2 X-7.2919 Y-8.8717 I-0.2159 J0.2289
G2 X-7.4154 Y-8.9283 I-0.4189 J0.7513
G3 X-7.4843 Y-8.9599 I0.1656 J-0.4529
G3 X-7.5288 Y-8.9932 I0.1009 J-0.1813
G3 X-7.5635 Y-9.0441 I0.1107 J-0.1127
G3 X-7.5757 Y-9.1043 I0.1417 J-0.0602
G3 X-7.5704 Y-9.1456 I0.1612 J0
G3 X-7.5544 Y-9.1835 I0.1424 J0.0378
G3 X-7.5295 Y-9.2153 I0.1391 J0.0833
G3 X-7.4944 Y-9.2442 I0.1759 J0.1772
G3 X-7.4582 Y-9.2658 I0.1931 J0.2826
G3 X-7.4064 Y-9.2899 I0.3213 J0.623
G3 X-7.3566 Y-9.3091 I0.3937 J0.9453
G3 X-7.2833 Y-9.3339 I0.7487 J2.0998
G3 X-7.1446 Y-9.3714 I0.5019 J1.5787
G3 X-6.9286 Y-9.4137 I0.8713 J3.878
G3 X-6.7104 Y-9.4436 I0.6192 J3.7045
G3 X-6.5851 Y-9.4504 I0.1253 J1.1663
G1 X-6.5626 Y-9.4504
G1 X-6.3967 Y-9.6468
G3 X-6.3956 Y-9.6481 I217.3966 J183.529
G3 X-6.3934 Y-9.6507 I855.4242 J722.1687
G2 X-6.3068 Y-9.7541 I-12.4922 J-10.5463
G2 X-6.28 Y-9.7874 I-1.3051 J-1.0835
G2 X-6.2435 Y-9.8372 I-0.6696 J-0.528
G2 X-6.2321 Y-9.857 I-0.1274 J-0.0863
G2 X-6.2272 Y-9.8718 I-0.0556 J-0.0266
G2 X-6.2267 Y-9.8774 I-0.0285 J-0.0056
G2 X-6.2269 Y-9.8804 I-0.0291 J0
G2 X-6.2283 Y-9.8883 I-0.0507 J0.0052
G2 X-6.2413 Y-9.9317 I-0.7483 J0.2005
G2 X-6.2599 Y-9.9765 I-0.3149 J0.1044
G2 X-6.2822 Y-10.0132 I-0.2399 J0.1209
G2 X-6.31 Y-10.0457 I-0.2154 J0.156
G2 X-6.3462 Y-10.0766 I-0.2241 J0.2252
G3 X-6.4187 Y-10.1526 I0.1787 J-0.2434
G3 X-6.4446 Y-10.2353 I0.1281 J-0.0854
G3 X-6.4446 Y-10.2377 I0.1388 J-0.0024
G3 X-6.4373 Y-10.282 I0.1389 J0
G3 X-6.4152 Y-10.3241 I0.1423 J0.0479
G3 X-6.3831 Y-10.3568 I0.1373 J0.1029
G3 X-6.3401 Y-10.3836 I0.1522 J0.1959
G3 X-6.3016 Y-10.3977 I0.0857 J0.1749
G3 X-6.2451 Y-10.4083 I0.1194 J0.4783
G3 X-6.1913 Y-10.4132 I0.0941 J0.7307
G3 X-6.1192 Y-10.4153 I0.0746 J1.3649
G3 X-5.9724 Y-10.41 I0.0036 J1.9301
G3 X-5.7839 Y-10.3904 I-0.2416 J3.2483
G1 X-5.6091 Y-10.3671
G1 X-5.3321 Y-10.5742
G2 X-5.2103 Y-10.6661 I-8.7754 J-11.7442
G2 X-5.115 Y-10.7399 I-5.568 J-7.2923
G2 X-5.0706 Y-10.7751 I-3.6117 J-4.6034
G2 X-5.0436 Y-10.797 I-1.4033 J-1.7534
G2 X-5.0173 Y-10.8195 I-0.651 J-0.7881
G2 X-5.0086 Y-10.8326 I-0.0546 J-0.0456
G2 X-5.0058 Y-10.8405 I-0.0277 J-0.0142
G2 X-5.0052 Y-10.8471 I-0.0315 J-0.0065
G2 X-5.0052 Y-10.8493 I-0.0322 J0
G2 X-5.0084 Y-10.8664 I-0.077 J0.0053
G2 X-5.0265 Y-10.9057 I-0.1503 J0.0455
G2 X-5.0966 Y-11.0003 I-0.7478 J0.4803
G3 X-5.1346 Y-11.0481 I0.7294 J-0.6188
G3 X-5.1525 Y-11.0765 I0.1792 J-0.1334
G3 X-5.1666 Y-11.1134 I0.1385 J-0.0737
G3 X-5.1713 Y-11.1532 I0.1649 J-0.0398
G3 X-5.1513 Y-11.2318 I0.1642 J0
G3 X-5.0961 Y-11.2906 I0.1407 J0.0767
G3 X-5.0289 Y-11.3184 I0.1134 J0.1798
G3 X-4.9343 Y-11.329 I0.0966 J0.4332
G3 X-4.8423 Y-11.3228 I0.0028 J0.6506
G3 X-4.7221 Y-11.2999 I-0.1648 J1.1917
G3 X-4.6024 Y-11.2656 I-0.3651 J1.4971
G3 X-4.462 Y-11.2138 I-0.7095 J2.1409
G1 X-4.3474 Y-11.1672
G1 X-4.1891 Y-11.2379
G3 X-3.3933 Y-11.5538 I4.1345 J9.254
G3 X-2.6184 Y-11.7859 I2.9779 J8.5358
G3 X-1.8257 Y-11.9471 I2.1658 J8.6198
G3 X-1.0018 Y-12.0387 I1.4424 J9.2246
G2 X-0.9263 Y-12.0437 I-5.7167 J-86.0928
G2 X-0.8594 Y-12.0482 I-4.5532 J-67.6716
G2 X-0.7926 Y-12.0529 I-2.7694 J-40.5614
G2 X-0.7746 Y-12.0542 I-0.2101 J-3.0048
G3 X-0.7542 Y-12.0554 I0.0471 J0.6195
G3 X-0.7037 Y-12.0572 I0.1797 J4.1728
G3 X-0.6535 Y-12.0586 I0.1918 J6.1974
G3 X-0.6014 Y-12.0596 I0.1525 J6.6763
G1 X-0.4764 Y-12.0615
G3 X-0.4129 Y-11.999 I0.0009 J0.0625
G1 X-0.4129 Y-11.6656
G1 X-0.4129 Y-11.3948
G1 X-0.2661 Y-11.3948
G1 X-0.0567 Y-11.3948
G3 X0.0057 Y-11.3343 I0 J0.0625
G1 X0.013 Y-11.1093
G3 X0.0152 Y-11.0153 I-5.4305 J0.1759
G3 X0.0182 Y-10.7653 I-38.7568 J0.5842
G3 X0.0198 Y-10.515 I-57.2069 J0.4933
G3 X0.0204 Y-10.2573 I-60.6676 J0.2577
G1 X0.0204 Y-9.6323
G3 X-0.0421 Y-9.5698 I-0.0625 J0
G1 X-0.2475 Y-9.5698
G1 X-0.3909 Y-9.5698
G1 X-0.3934 Y-9.2679
G1 X-0.3963 Y-8.904
G3 X-0.4532 Y-8.8423 I-0.0625 J-0.0005
G1 X-0.6015 Y-8.8289
G2 X-1.1583 Y-8.7546 I0.5851 J6.5057
G2 X-1.6691 Y-8.6394 I0.9938 J5.5978
G2 X-2.1591 Y-8.4786 I1.3862 J5.0511
G2 X-2.5878 Y-8.287 I1.5588 J4.063
G2 X-2.9907 Y-8.0488 I1.7915 J3.4896
G2 X-3.3223 Y-7.7914 I1.7713 J2.6244
G2 X-3.6169 Y-7.4875 I1.8867 J2.1238
G2 X-3.8385 Y-7.1728 I1.8111 J1.511
G2 X-4.0456 Y-6.703 I1.8967 J1.1162
G2 X-4.128 Y-6.2315 I1.8352 J0.5639
G2 X-4.1302 Y-6.1407 I1.885 J0.0908
G2 X-4.0904 Y-5.7552 I1.8872 J0
G2 X-3.93 Y-5.2833 I2.0051 J-0.4184
G2 X-3.8375 Y-5.11 I2.1744 J-1.0494
G2 X-3.7401 Y-4.9599 I1.7379 J-1.0206
G2 X-3.6299 Y-4.8183 I1.7448 J-1.2452
G2 X-3.4815 Y-4.6552 I2.4477 J-2.0765
G2 X-3.2295 Y-4.4259 I2.0234 J-1.971
G2 X-2.9248 Y-4.207 I2.1414 J-2.6598
G2 X-2.6007 Y-4.0221 I2.0266 J-3.1764
G2 X-2.2264 Y-3.8533 I2.0553 J-4.0579
G2 X-1.4342 Y-3.6095 I1.9196 J-4.8263
G1 Z-0.4 F30
G2 X-0.4855 Y-3.4665 I1.5061 J-6.7734 F60
G1 X-0.3951 Y-3.4592
G3 X-0.3378 Y-3.402 I-0.005 J0.0623
G1 X-0.3313 Y-3.3225
G3 X-0.3292 Y-3.2867 I-0.7539 J0.062
G3 X-0.3243 Y-3.1237 I-16.981 J0.5879
G3 X-0.3207 Y-2.9609 I-31.0606 J0.777
G3 X-0.3172 Y-2.7653 I-44.8537 J0.8869
G1 X-0.3108 Y-2.3484
G1 X-0.2837 Y-2.3461
G2 X-0.2511 Y-2.3438 I0.0903 J-1.0684
G2 X-0.1943 Y-2.3413 I0.1688 J-3.1303
G2 X-0.1373 Y-2.3397 I0.1274 J-3.5623
G2 X-0.0916 Y-2.3392 I0.0457 J-2.3152
G1 X0.0223 Y-2.3392
G3 X0.0847 Y-2.2797 I0 J0.0625
G1 X0.0911 Y-2.1435
G3 X0.0934 Y-2.0867 I-4.848 J0.2264
G3 X0.0975 Y-1.9611 I-23.8381 J0.8333
G3 X0.1009 Y-1.8357 I-32.1644 J0.9549
G3 X0.1038 Y-1.7158 I-29.3822 J0.7576
G1 X0.1101 Y-1.4257
G3 X0.1101 Y-1.4244 I-0.0625 J0.0014
G3 X0.0551 Y-1.3623 I-0.0625 J0
G1 X-0.0037 Y-1.3553
G3 X-0.0311 Y-1.3527 I-0.0656 J-0.5462
G3 X-0.0809 Y-1.3498 I-0.1371 J-1.9698
G3 X-0.1304 Y-1.3481 I-0.1097 J-2.4778
G3 X-0.1753 Y-1.3475 I-0.0492 J-2.0268
G2 X-0.2174 Y-1.347 I0.0038 J1.8289
G2 X-0.2592 Y-1.3454 I0.0453 J1.8073
G2 X-0.3003 Y-1.3428 I0.0599 J1.2416
G2 X-0.3019 Y-1.3426 I0.0121 J0.1481
G1 X-0.3019 Y-0.8808
G1 X-0.3019 Y-0.3656
G3 X-0.3644 Y-0.3031 I-0.0625 J0
G1 X-0.3907 Y-0.3031
G1 X-0.3907 Y-0.2778
G3 X-0.459 Y-0.2156 I-0.0625 J0
G1 X-0.5118 Y-0.2205
G2 X-0.5324 Y-0.2222 I-0.1022 J1.0985
G2 X-0.603 Y-0.2272 I-0.9085 J12.2499
G2 X-0.6738 Y-0.2319 I-1.3467 J19.6971
G2 X-0.7515 Y-0.2368 I-1.5365 J23.7241
G3 X-1.3051 Y-0.2806 I0.9735 J-15.836
G3 X-1.7823 Y-0.3365 I1.1419 J-11.809
G3 X-2.2613 Y-0.414 I1.4157 J-10.2763
G3 X-2.6822 Y-0.5037 I1.4888 J-8.0142
G3 X-3.0977 Y-0.6168 I1.721 J-7.1414
G3 X-3.473 Y-0.7441 I1.8072 J-5.945
G3 X-3.836 Y-0.8944 I2.054 J-5.4751
G3 X-4.1762 Y-1.0633 I2.2573 J-4.973
G1 X-4.3117 Y-1.1366
G1 X-4.3678 Y-1.1273
G2 X-4.4526 Y-1.105 I0.0762 J0.4612
G2 X-4.4989 Y-1.0804 I0.0669 J0.1825
G2 X-4.5348 Y-1.0455 I0.0983 J0.1371
G2 X-4.5702 Y-0.9852 I0.2315 J0.1762
G3 X-4.6111 Y-0.896 I-2.1783 J-0.9458
G3 X-4.6303 Y-0.8621 I-0.2751 J-0.1332
G3 X-4.6629 Y-0.8257 I-0.1347 J-0.088
G3 X-4.7046 Y-0.8028 I-0.0819 J-0.0997
G3 X-4.7716 Y-0.7969 I-0.0462 J-0.1408
G3 X-4.8345 Y-0.821 I0.0212 J-0.1494
G3 X-4.8789 Y-0.8613 I0.1151 J-0.1714
G3 X-4.9272 Y-0.931 I0.4014 J-0.33
G3 X-4.9789 Y-1.036 I0.7547 J-0.437
G3 X-5.0156 Y-1.1456 I0.7855 J-0.3233
G3 X-5.0382 Y-1.2577 I1.0048 J-0.2612
G3 X-5.0556 Y-1.4201 I2.1649 J-0.314
G1 X-5.0612 Y-1.5007
G1 X-5.2485 Y-1.6439
G2 X-5.3349 Y-1.7095 I-9.6961 J12.6824
G2 X-5.4031 Y-1.7605 I-5.9346 J7.8727
G2 X-5.4354 Y-1.7842 I-3.717 J5.0205
G2 X-5.4552 Y-1.7985 I-1.3939 J1.9082
G2 X-5.4731 Y-1.811 I-0.6166 J0.8627
G2 X-5.4935 Y-1.8146 I-0.0524 J0.2383
G2 X-5.5196 Y-1.8172 I-0.0528 J0.3991
G2 X-5.5478 Y-1.8182 I-0.0302 J0.4563
G2 X-5.5866 Y-1.8166 I-0.0019 J0.4294
G2 X-5.6086 Y-1.8133 I0.0144 J0.1675
G2 X-5.6291 Y-1.8067 I0.026 J0.1173
G2 X-5.6459 Y-1.7977 I0.0388 J0.0925
G2 X-5.6621 Y-1.7849 I0.0688 J0.1031
G2 X-5.685 Y-1.7604 I0.1838 J0.1954
G2 X-5.7053 Y-1.7338 I0.3256 J0.2691
G2 X-5.7373 Y-1.6856 I0.9503 J0.6665
G3 X-5.7727 Y-1.6377 I-0.3414 J-0.2149
G3 X-5.811 Y-1.6002 I-0.2337 J-0.2007
G3 X-5.8594 Y-1.5697 I-0.1452 J-0.177
G3 X-5.9093 Y-1.5587 I-0.0499 J-0.107
G3 X-5.9619 Y-1.5691 I0 J-0.137
G3 X-6.0118 Y-1.5987 I0.0789 J-0.1903
G3 X-6.0508 Y-1.638 I0.1526 J-0.1904
G3 X-6.0813 Y-1.6866 I0.2117 J-0.1668
G3 X-6.1051 Y-1.7503 I0.3172 J-0.1549
G3 X-6.1246 Y-1.8456 I0.7829 J-0.2094
G3 X-6.1353 Y-1.9388 I1.739 J-0.2473
G3 X-6.1537 Y-2.1754 I11.5589 J-1.0181
G1 X-6.1678 Y-2.384
G1 X-6.3119 Y-2.5387
G1 X-6.453 Y-2.6901
G1 X-6.5156 Y-2.6909
G2 X-6.6398 Y-2.6811 I-0.0086 J0.682
G2 X-6.7078 Y-2.6593 I0.0433 J0.2518
G2 X-6.7616 Y-2.6208 I0.0852 J0.1762
G2 X-6.8102 Y-2.5546 I0.1984 J0.1964
G3 X-6.8297 Y-2.5187 I-1.3893 J-0.7325
G3 X-6.8413 Y-2.4992 I-0.3785 J-0.2123
G3 X-6.8584 Y-2.4751 I-0.2328 J-0.1471
G3 X-6.8756 Y-2.4569 I-0.1114 J-0.0884
G3 X-6.8992 Y-2.4406 I-0.08 J-0.0905
G3 X-6.926 Y-2.4304 I-0.056 J-0.106
G3 X-6.9471 Y-2.4268 I-0.0338 J-0.1344
G3 X-6.9735 Y-2.4255 I-0.0277 J-0.3029
G3 X-7.0346 Y-2.4396 I-0.0006 J-0.1368
G3 X-7.0881 Y-2.479 I0.0833 J-0.169
G3 X-7.1246 Y-2.5291 I0.1758 J-0.1668
G3 X-7.1528 Y-2.5952 I0.3177 J-0.1745
G3 X-7.1678 Y-2.6591 I0.4274 J-0.1339
G3 X-7.1783 Y-2.7535 I1.0141 J-0.1605
G3 X-7.1812 Y-2.8437 I1.399 J-0.0902
G1 X-7.1812 Y-2.8438
G3 X-7.1783 Y-2.954 I2.1114 J0.0002
G3 X-7.1555 Y-3.1846 I2.5092 J0.1313
G3 X-7.1136 Y-3.3983 I2.188 J0.3185
G2 X-7.1004 Y-3.4527 I-5.2049 J-1.2908
G2 X-7.0907 Y-3.4949 I-3.1525 J-0.747
G2 X-7.0863 Y-3.5148 I-1.982 J-0.4418
G2 X-7.0847 Y-3.5229 I-0.7276 J-0.1545
G2 X-7.0868 Y-3.5271 I-0.5129 J0.2644
G2 X-7.0976 Y-3.547 I-0.9524 J0.5008
G2 X-7.1173 Y-3.5821 I-2.8745 J1.5896
G2 X-7.1603 Y-3.6564 I-4.7719 J2.7157
G2 X-7.2198 Y-3.7558 I-8.5508 J5.045
G1 X-7.3497 Y-3.9702
G1 X-7.3799 Y-3.9728
G2 X-7.4981 Y-3.9723 I-0.0565 J0.6755
G2 X-7.5905 Y-3.954 I0.0409 J0.4481
G2 X-7.6755 Y-3.9166 I0.1217 J0.3921
G2 X-7.7555 Y-3.8577 I0.2331 J0.4001
G3 X-7.806 Y-3.8138 I-0.8355 J-0.9105
G3 X-7.8342 Y-3.7935 I-0.1705 J-0.2073
G3 X-7.872 Y-3.776 I-0.0882 J-0.141
G3 X-7.9119 Y-3.7698 I-0.0399 J-0.1256
G3 X-7.9563 Y-3.7748 I0 J-0.1989
G3 X-7.9954 Y-3.7899 I0.0327 J-0.1428
G3 X-8.0296 Y-3.817 I0.0684 J-0.1217
G3 X-8.055 Y-3.8536 I0.1183 J-0.1091
G3 X-8.0765 Y-3.9265 I0.189 J-0.0953
G3 X-8.0801 Y-3.9942 I0.6359 J-0.0677
G3 X-8.0782 Y-4.0432 I0.6395 J0
G3 X-8.0548 Y-4.2025 I1.1634 J0.0894
G3 X-8 Y-4.4027 I1.9376 J0.4227
G3 X-7.927 Y-4.596 I2.3594 J0.7806
G3 X-7.8226 Y-4.8195 I3.2801 J1.3973
G1 X-7.7378 Y-4.9856
G1 X-7.7906 Y-5.2101
G2 X-7.8151 Y-5.3107 I-6.3509 J1.4934
G2 X-7.8358 Y-5.3895 I-3.9365 J0.9918
G2 X-7.8461 Y-5.4262 I-2.4829 J0.6788
G2 X-7.8527 Y-5.4481 I-0.9274 J0.2684
G2 X-7.8584 Y-5.4649 I-0.4004 J0.1262
G2 X-7.8704 Y-5.4786 I-0.0727 J0.0519
G2 X-7.9207 Y-5.5197 I-0.355 J0.383
G2 X-7.9765 Y-5.5553 I-0.3527 J0.491
G2 X-8.0144 Y-5.573 I-0.1323 J0.2346
G2 X-8.0813 Y-5.5902 I-0.1142 J0.3052
G2 X-8.1456 Y-5.5923 I-0.0419 J0.2855
G2 X-8.2138 Y-5.5815 I0.0333 J0.4276
G2 X-8.3443 Y-5.5434 I0.357 J1.4653
G3 X-8.4518 Y-5.5083 I-1.3235 J-3.8749
G3 X-8.4866 Y-5.4995 I-0.1016 J-0.3268
G3 X-8.5323 Y-5.4968 I-0.0322 J-0.1617
G3 X-8.576 Y-5.5074 I0.012 J-0.1448
G3 X-8.6222 Y-5.5353 I0.0691 J-0.1668
G3 X-8.6544 Y-5.5753 I0.082 J-0.0989
G3 X-8.6689 Y-5.62 I0.1307 J-0.0673
G3 X-8.673 Y-5.6721 I0.3346 J-0.0521
G3 X-8.6729 Y-5.6798 I0.3386 J0
G3 X-8.6569 Y-5.7722 I0.3152 J0.0071
G3 X-8.5997 Y-5.9059 I0.8318 J0.2768
G3 X-8.5291 Y-6.0239 I1.1754 J0.6229
G3 X-8.4237 Y-6.1685 I1.9099 J1.2807
G3 X-8.1691 Y-6.451 I2.3007 J1.8173
G3 X-7.8874 Y-6.6911 I1.9366 J1.9874
G2 X-7.855 Y-6.7153 I-8.0243 J-10.8009
G2 X-7.8309 Y-6.7333 I-4.4809 J-5.9938
G2 X-7.8236 Y-6.7389 I-2.7067 J-3.5904
G2 X-7.8201 Y-6.7563 I-2.1201 J-0.4289
G2 X-7.8134 Y-6.7915 I-6.8792 J-1.3331
G2 X-7.7995 Y-6.8666 I-11.8315 J-2.2299
G2 X-7.7808 Y-6.9707 I-22.6847 J-4.1267
G1 X-7.7404 Y-7.1984
G1 X-7.7555 Y-7.2203
G2 X-7.8018 Y-7.2754 I-0.3199 J0.2217
G2 X-7.8667 Y-7.3298 I-0.3658 J0.3701
G2 X-7.9387 Y-7.3716 I-0.2664 J0.3759
G2 X-7.9873 Y-7.3871 I-0.0847 J0.1818
G2 X-7.9983 Y-7.3887 I-0.0252 J0.1382
G2 X-8.0378 Y-7.3921 I-0.1323 J1.2978
G2 X-8.0781 Y-7.3945 I-0.1376 J1.9308
G2 X-8.1193 Y-7.3962 I-0.1018 J2.0216
G3 X-8.1844 Y-7.3997 I0.0405 J-1.3537
G3 X-8.2179 Y-7.4042 I0.0236 J-0.3013
G3 X-8.2555 Y-7.4156 I0.0359 J-0.187
G3 X-8.2881 Y-7.4342 I0.0594 J-0.1418
G3 X-8.3294 Y-7.4771 I0.1095 J-0.1467
G3 X-8.3521 Y-7.5297 I0.1225 J-0.0842
G3 X-8.3557 Y-7.5625 I0.1502 J-0.0328
G3 X-8.3539 Y-7.586 I0.1538 J0
G3 X-8.3361 Y-7.6438 I0.2071 J0.032
G3 X-8.301 Y-7.6986 I0.2335 J0.1108
G3 X-8.2235 Y-7.7811 I0.7397 J0.6175
G3 X-8.139 Y-7.8545 I0.8995 J0.9509
G3 X-8.0489 Y-7.92 I0.8072 J1.0144
G3 X-7.9448 Y-7.9831 I0.8189 J1.2332
G3 X-7.7733 Y-8.0721 I1.8486 J3.3525
G3 X-7.5976 Y-8.1525 I1.7215 J3.5327
G3 X-7.4768 Y-8.1989 I0.6802 J1.5899
G1 X-7.3769 Y-8.233
G1 X-7.2698 Y-8.4522
G2 X-7.1906 Y-8.6179 I-9.3814 J-4.5847
G2 X-7.1732 Y-8.6587 I-0.5997 J-0.2801
G2 X-7.164 Y-8.6922 I-0.1587 J-0.0615
G2 X-7.1636 Y-8.6972 I-0.0302 J-0.005
G2 X-7.164 Y-8.702 I-0.0306 J0
G2 X-7.1865 Y-8.7697 I-0.2164 J0.0346
G2 X-7.2292 Y-8.8258 I-0.1902 J0.1003
G2 X-7.2919 Y-8.8717 I-0.2159 J0.2289
G2 X-7.4154 Y-8.9283 I-0.4189 J0.7513
G3 X-7.4843 Y-8.9599 I0.1656 J-0.4529
G3 X-7.5288 Y-8.9932 I0.1009 J-0.1813
G3 X-7.5635 Y-9.0441 I0.1107 J-0.1127
G3 X-7.5757 Y-9.1043 I0.1417 J-0.0602
G3 X-7.5704 Y-9.1456 I0.1612 J0
G3 X-7.5544 Y-9.1835 I0.1424 J0.0378
G3 X-7.5295 Y-9.2153 I0.1391 J0.0833
G3 X-7.4944 Y-9.2442 I0.1759 J0.1772
G3 X-7.4582 Y-9.2658 I0.1931 J0.2826
G3 X-7.4064 Y-9.2899 I0.3213 J0.623
G3 X-7.3566 Y-9.3091 I0.3937 J0.9453
G3 X-7.2833 Y-9.3339 I0.7487 J2.0998
G3 X-7.1446 Y-9.3714 I0.5019 J1.5787
G3 X-6.9286 Y-9.4137 I0.8713 J3.878
G3 X-6.7104 Y-9.4436 I0.6192 J3.7045
G3 X-6.5851 Y-9.4504 I0.1253 J1.1663
G1 X-6.5626 Y-9.4504
G1 X-6.3967 Y-9.6468
G3 X-6.3956 Y-9.6481 I217.3966 J183.529
G3 X-6.3934 Y-9.6507 I855.4242 J722.1687
G2 X-6.3068 Y-9.7541 I-12.4922 J-10.5463
G2 X-6.28 Y-9.7874 I-1.3051 J-1.0835
G2 X-6.2435 Y-9.8372 I-0.6696 J-0.528
G2 X-6.2321 Y-9.857 I-0.1274 J-0.0863
G2 X-6.2272 Y-9.8718 I-0.0556 J-0.0266
G2 X-6.2267 Y-9.8774 I-0.0285 J-0.0056
G2 X-6.2269 Y-9.8804 I-0.0291 J0
G2 X-6.2283 Y-9.8883 I-0.0507 J0.0052
G2 X-6.2413 Y-9.9317 I-0.7483 J0.2005
G2 X-6.2599 Y-9.9765 I-0.3149 J0.1044
G2 X-6.2822 Y-10.0132 I-0.2399 J0.1209
G2 X-6.31 Y-10.0457 I-0.2154 J0.156
G2 X-6.3462 Y-10.0766 I-0.2241 J0.2252
G3 X-6.4187 Y-10.1526 I0.1787 J-0.2434
G3 X-6.4446 Y-10.2353 I0.1281 J-0.0854
G3 X-6.4446 Y-10.2377 I0.1388 J-0.0024
G3 X-6.4373 Y-10.282 I0.1389 J0
G3 X-6.4152 Y-10.3241 I0.1423 J0.0479
G3 X-6.3831 Y-10.3568 I0.1373 J0.1029
G3 X-6.3401 Y-10.3836 I0.1522 J0.1959
G3 X-6.3016 Y-10.3977 I0.0857 J0.1749
G3 X-6.2451 Y-10.4083 I0.1194 J0.4783
G3 X-6.1913 Y-10.4132 I0.0941 J0.7307
G3 X-6.1192 Y-10.4153 I0.0746 J1.3649
G3 X-5.9724 Y-10.41 I0.0036 J1.9301
G3 X-5.7839 Y-10.3904 I-0.2416 J3.2483
G1 X-5.6091 Y-10.3671
G1 X-5.3321 Y-10.5742
G2 X-5.2103 Y-10.6661 I-8.7754 J-11.7442
G2 X-5.115 Y-10.7399 I-5.568 J-7.2923
G2 X-5.0706 Y-10.7751 I-3.6117 J-4.6034
G2 X-5.0436 Y-10.797 I-1.4033 J-1.7534
G2 X-5.0173 Y-10.8195 I-0.651 J-0.7881
G2 X-5.0086 Y-10.8326 I-0.0546 J-0.0456
G2 X-5.0058 Y-10.8405 I-0.0277 J-0.0142
G2 X-5.0052 Y-10.8471 I-0.0315 J-0.0065
G2 X-5.0052 Y-10.8493 I-0.0322 J0
G2 X-5.0084 Y-10.8664 I-0.077 J0.0053
G2 X-5.0265 Y-10.9057 I-0.1503 J0.0455
G2 X-5.0966 Y-11.0003 I-0.7478 J0.4803
G3 X-5.1346 Y-11.0481 I0.7294 J-0.6188
G3 X-5.1525 Y-11.0765 I0.1792 J-0.1334
G3 X-5.1666 Y-11.1134 I0.1385 J-0.0737
G3 X-5.1713 Y-11.1532 I0.1649 J-0.0398
G3 X-5.1513 Y-11.2318 I0.1642 J0
G3 X-5.0961 Y-11.2906 I0.1407 J0.0767
G3 X-5.0289 Y-11.3184 I0.1134 J0.1798
G3 X-4.9343 Y-11.329 I0.0966 J0.4332
G3 X-4.8423 Y-11.3228 I0.0028 J0.6506
G3 X-4.7221 Y-11.2999 I-0.1648 J1.1917
G3 X-4.6024 Y-11.2656 I-0.3651 J1.4971
G3 X-4.462 Y-11.2138 I-0.7095 J2.1409
G1 X-4.3474 Y-11.1672
G1 X-4.1891 Y-11.2379
G3 X-3.3933 Y-11.5538 I4.1345 J9.254
G3 X-2.6184 Y-11.7859 I2.9779 J8.5358
G3 X-1.8257 Y-11.9471 I2.1658 J8.6198
G3 X-1.0018 Y-12.0387 I1.4424 J9.2246
G2 X-0.9263 Y-12.0437 I-5.7167 J-86.0928
G2 X-0.8594 Y-12.0482 I-4.5532 J-67.6716
G2 X-0.7926 Y-12.0529 I-2.7694 J-40.5614
G2 X-0.7746 Y-12.0542 I-0.2101 J-3.0048
G3 X-0.7542 Y-12.0554 I0.0471 J0.6195
G3 X-0.7037 Y-12.0572 I0.1797 J4.1728
G3 X-0.6535 Y-12.0586 I0.1918 J6.1974
G3 X-0.6014 Y-12.0596 I0.1525 J6.6763
G1 X-0.4764 Y-12.0615
G3 X-0.4129 Y-11.999 I0.0009 J0.0625
G1 X-0.4129 Y-11.6656
G1 X-0.4129 Y-11.3948
G1 X-0.2661 Y-11.3948
G1 X-0.0567 Y-11.3948
G3 X0.0057 Y-11.3343 I0 J0.0625
G1 X0.013 Y-11.1093
G3 X0.0152 Y-11.0153 I-5.4305 J0.1759
G3 X0.0182 Y-10.7653 I-38.7568 J0.5842
G3 X0.0198 Y-10.515 I-57.2069 J0.4933
G3 X0.0204 Y-10.2573 I-60.6676 J0.2577
G1 X0.0204 Y-9.6323
G3 X-0.0421 Y-9.5698 I-0.0625 J0
G1 X-0.2475 Y-9.5698
G1 X-0.3909 Y-9.5698
G1 X-0.3934 Y-9.2679
G1 X-0.3963 Y-8.904
G3 X-0.4532 Y-8.8423 I-0.0625 J-0.0005
G1 X-0.6015 Y-8.8289
G2 X-1.1583 Y-8.7546 I0.5851 J6.5057
G2 X-1.6691 Y-8.6394 I0.9938 J5.5978
G2 X-2.1591 Y-8.4786 I1.3862 J5.0511
G2 X-2.5878 Y-8.287 I1.5588 J4.063
G2 X-2.9907 Y-8.0488 I1.7915 J3.4896
G2 X-3.3223 Y-7.7914 I1.7713 J2.6244
G2 X-3.6169 Y-7.4875 I1.8867 J2.1238
G2 X-3.8385 Y-7.1728 I1.8111 J1.511
G2 X-4.0456 Y-6.703 I1.8967 J1.1162
G2 X-4.128 Y-6.2315 I1.8352 J0.5639
G2 X-4.1302 Y-6.1407 I1.885 J0.0908
G2 X-4.0904 Y-5.7552 I1.8872 J0
G2 X-3.93 Y-5.2833 I2.0051 J-0.4184
G2 X-3.8375 Y-5.11 I2.1744 J-1.0494
G2 X-3.7401 Y-4.9599 I1.7379 J-1.0206
G2 X-3.6299 Y-4.8183 I1.7448 J-1.2452
G2 X-3.4815 Y-4.6552 I2.4477 J-2.0765
G2 X-3.2295 Y-4.4259 I2.0234 J-1.971
G2 X-2.9248 Y-4.207 I2.1414 J-2.6598
G2 X-2.6007 Y-4.0221 I2.0266 J-3.1764
G2 X-2.2264 Y-3.8533 I2.0553 J-4.0579
G2 X-1.4342 Y-3.6095 I1.9196 J-4.8263
G1 Z-0.5 F30
G2 X-0.4855 Y-3.4665 I1.5061 J-6.7734 F60
G1 X-0.3951 Y-3.4592
G3 X-0.3378 Y-3.402 I-0.005 J0.0623
G1 X-0.3313 Y-3.3225
G3 X-0.3292 Y-3.2867 I-0.7539 J0.062
G3 X-0.3243 Y-3.1237 I-16.981 J0.5879
G3 X-0.3207 Y-2.9609 I-31.0606 J0.777
G3 X-0.3172 Y-2.7653 I-44.8537 J0.8869
G1 X-0.3108 Y-2.3484
G1 X-0.2837 Y-2.3461
G2 X-0.2511 Y-2.3438 I0.0903 J-1.0684
G2 X-0.1943 Y-2.3413 I0.1688 J-3.1303
G2 X-0.1373 Y-2.3397 I0.1274 J-3.5623
G2 X-0.0916 Y-2.3392 I0.0457 J-2.3152
G1 X0.0223 Y-2.3392
G3 X0.0847 Y-2.2797 I0 J0.0625
G1 X0.0911 Y-2.1435
G3 X0.0934 Y-2.0867 I-4.848 J0.2264
G3 X0.0975 Y-1.9611 I-23.8381 J0.8333
G3 X0.1009 Y-1.8357 I-32.1644 J0.9549
G3 X0.1038 Y-1.7158 I-29.3822 J0.7576
G1 X0.1101 Y-1.4257
G3 X0.1101 Y-1.4244 I-0.0625 J0.0014
G3 X0.0551 Y-1.3623 I-0.0625 J0
G1 X-0.0037 Y-1.3553
G3 X-0.0311 Y-1.3527 I-0.0656 J-0.5462
G3 X-0.0809 Y-1.3498 I-0.1371 J-1.9698
G3 X-0.1304 Y-1.3481 I-0.1097 J-2.4778
G3 X-0.1753 Y-1.3475 I-0.0492 J-2.0268
G2 X-0.2174 Y-1.347 I0.0038 J1.8289
G2 X-0.2592 Y-1.3454 I0.0453 J1.8073
G2 X-0.3003 Y-1.3428 I0.0599 J1.2416
G2 X-0.3019 Y-1.3426 I0.0121 J0.1481
G1 X-0.3019 Y-0.8808
G1 X-0.3019 Y-0.3656
G3 X-0.3644 Y-0.3031 I-0.0625 J0
G1 X-0.3907 Y-0.3031
G1 X-0.3907 Y-0.2778
G3 X-0.459 Y-0.2156 I-0.0625 J0
G1 X-0.5118 Y-0.2205
G2 X-0.5324 Y-0.2222 I-0.1022 J1.0985
G2 X-0.603 Y-0.2272 I-0.9085 J12.2499
G2 X-0.6738 Y-0.2319 I-1.3467 J19.6971
G2 X-0.7515 Y-0.2368 I-1.5365 J23.7241
G3 X-1.3051 Y-0.2806 I0.9735 J-15.836
G3 X-1.7823 Y-0.3365 I1.1419 J-11.809
G3 X-2.2613 Y-0.414 I1.4157 J-10.2763
G3 X-2.6822 Y-0.5037 I1.4888 J-8.0142
G3 X-3.0977 Y-0.6168 I1.721 J-7.1414
G3 X-3.473 Y-0.7441 I1.8072 J-5.945
G3 X-3.836 Y-0.8944 I2.054 J-5.4751
G3 X-4.1762 Y-1.0633 I2.2573 J-4.973
G1 X-4.3117 Y-1.1366
G1 X-4.3678 Y-1.1273
G2 X-4.4526 Y-1.105 I0.0762 J0.4612
G2 X-4.4989 Y-1.0804 I0.0669 J0.1825
G2 X-4.5348 Y-1.0455 I0.0983 J0.1371
G2 X-4.5702 Y-0.9852 I0.2315 J0.1762
G3 X-4.6111 Y-0.896 I-2.1783 J-0.9458
G3 X-4.6303 Y-0.8621 I-0.2751 J-0.1332
G3 X-4.6629 Y-0.8257 I-0.1347 J-0.088
G3 X-4.7046 Y-0.8028 I-0.0819 J-0.0997
G3 X-4.7716 Y-0.7969 I-0.0462 J-0.1408
G3 X-4.8345 Y-0.821 I0.0212 J-0.1494
G3 X-4.8789 Y-0.8613 I0.1151 J-0.1714
G3 X-4.9272 Y-0.931 I0.4014 J-0.33
G3 X-4.9789 Y-1.036 I0.7547 J-0.437
G3 X-5.0156 Y-1.1456 I0.7855 J-0.3233
G3 X-5.0382 Y-1.2577 I1.0048 J-0.2612
G3 X-5.0556 Y-1.4201 I2.1649 J-0.314
G1 X-5.0612 Y-1.5007
G1 X-5.2485 Y-1.6439
G2 X-5.3349 Y-1.7095 I-9.6961 J12.6824
G2 X-5.4031 Y-1.7605 I-5.9346 J7.8727
G2 X-5.4354 Y-1.7842 I-3.717 J5.0205
G2 X-5.4552 Y-1.7985 I-1.3939 J1.9082
G2 X-5.4731 Y-1.811 I-0.6166 J0.8627
G2 X-5.4935 Y-1.8146 I-0.0524 J0.2383
G2 X-5.5196 Y-1.8172 I-0.0528 J0.3991
G2 X-5.5478 Y-1.8182 I-0.0302 J0.4563
G2 X-5.5866 Y-1.8166 I-0.0019 J0.4294
G2 X-5.6086 Y-1.8133 I0.0144 J0.1675
G2 X-5.6291 Y-1.8067 I0.026 J0.1173
G2 X-5.6459 Y-1.7977 I0.0388 J0.0925
G2 X-5.6621 Y-1.7849 I0.0688 J0.1031
G2 X-5.685 Y-1.7604 I0.1838 J0.1954
G2 X-5.7053 Y-1.7338 I0.3256 J0.2691
G2 X-5.7373 Y-1.6856 I0.9503 J0.6665
G3 X-5.7727 Y-1.6377 I-0.3414 J-0.2149
G3 X-5.811 Y-1.6002 I-0.2337 J-0.2007
G3 X-5.8594 Y-1.5697 I-0.1452 J-0.177
G3 X-5.9093 Y-1.5587 I-0.0499 J-0.107
G3 X-5.9619 Y-1.5691 I0 J-0.137
G3 X-6.0118 Y-1.5987 I0.0789 J-0.1903
G3 X-6.0508 Y-1.638 I0.1526 J-0.1904
G3 X-6.0813 Y-1.6866 I0.2117 J-0.1668
G3 X-6.1051 Y-1.7503 I0.3172 J-0.1549
G3 X-6.1246 Y-1.8456 I0.7829 J-0.2094
G3 X-6.1353 Y-1.9388 I1.739 J-0.2473
G3 X-6.1537 Y-2.1754 I11.5589 J-1.0181
G1 X-6.1678 Y-2.384
G1 X-6.3119 Y-2.5387
G1 X-6.453 Y-2.6901
G1 X-6.5156 Y-2.6909
G2 X-6.6398 Y-2.6811 I-0.0086 J0.682
G2 X-6.7078 Y-2.6593 I0.0433 J0.2518
G2 X-6.7616 Y-2.6208 I0.0852 J0.1762
G2 X-6.8102 Y-2.5546 I0.1984 J0.1964
G3 X-6.8297 Y-2.5187 I-1.3893 J-0.7325
G3 X-6.8413 Y-2.4992 I-0.3785 J-0.2123
G3 X-6.8584 Y-2.4751 I-0.2328 J-0.1471
G3 X-6.8756 Y-2.4569 I-0.1114 J-0.0884
G3 X-6.8992 Y-2.4406 I-0.08 J-0.0905
G3 X-6.926 Y-2.4304 I-0.056 J-0.106
G3 X-6.9471 Y-2.4268 I-0.0338 J-0.1344
G3 X-6.9735 Y-2.4255 I-0.0277 J-0.3029
G3 X-7.0346 Y-2.4396 I-0.0006 J-0.1368
G3 X-7.0881 Y-2.479 I0.0833 J-0.169
G3 X-7.1246 Y-2.5291 I0.1758 J-0.1668
G3 X-7.1528 Y-2.5952 I0.3177 J-0.1745
G3 X-7.1678 Y-2.6591 I0.4274 J-0.1339
G3 X-7.1783 Y-2.7535 I1.0141 J-0.1605
G3 X-7.1812 Y-2.8437 I1.399 J-0.0902
G1 X-7.1812 Y-2.8438
G3 X-7.1783 Y-2.954 I2.1114 J0.0002
G3 X-7.1555 Y-3.1846 I2.5092 J0.1313
G3 X-7.1136 Y-3.3983 I2.188 J0.3185
G2 X-7.1004 Y-3.4527 I-5.2049 J-1.2908
G2 X-7.0907 Y-3.4949 I-3.1525 J-0.747
G2 X-7.0863 Y-3.5148 I-1.982 J-0.4418
G2 X-7.0847 Y-3.5229 I-0.7276 J-0.1545
G2 X-7.0868 Y-3.5271 I-0.5129 J0.2644
G2 X-7.0976 Y-3.547 I-0.9524 J0.5008
G2 X-7.1173 Y-3.5821 I-2.8745 J1.5896
G2 X-7.1603 Y-3.6564 I-4.7719 J2.7157
G2 X-7.2198 Y-3.7558 I-8.5508 J5.045
G1 X-7.3497 Y-3.9702
G1 X-7.3799 Y-3.9728
G2 X-7.4981 Y-3.9723 I-0.0565 J0.6755
G2 X-7.5905 Y-3.954 I0.0409 J0.4481
G2 X-7.6755 Y-3.9166 I0.1217 J0.3921
G2 X-7.7555 Y-3.8577 I0.2331 J0.4001
G3 X-7.806 Y-3.8138 I-0.8355 J-0.9105
G3 X-7.8342 Y-3.7935 I-0.1705 J-0.2073
G3 X-7.872 Y-3.776 I-0.0882 J-0.141
G3 X-7.9119 Y-3.7698 I-0.0399 J-0.1256
G3 X-7.9563 Y-3.7748 I0 J-0.1989
G3 X-7.9954 Y-3.7899 I0.0327 J-0.1428
G3 X-8.0296 Y-3.817 I0.0684 J-0.1217
G3 X-8.055 Y-3.8536 I0.1183 J-0.1091
G3 X-8.0765 Y-3.9265 I0.189 J-0.0953
G3 X-8.0801 Y-3.9942 I0.6359 J-0.0677
G3 X-8.0782 Y-4.0432 I0.6395 J0
G3 X-8.0548 Y-4.2025 I1.1634 J0.0894
G3 X-8 Y-4.4027 I1.9376 J0.4227
G3 X-7.927 Y-4.596 I2.3594 J0.7806
G3 X-7.8226 Y-4.8195 I3.2801 J1.3973
G1 X-7.7378 Y-4.9856
G1 X-7.7906 Y-5.2101
G2 X-7.8151 Y-5.3107 I-6.3509 J1.4934
G2 X-7.8358 Y-5.3895 I-3.9365 J0.9918
G2 X-7.8461 Y-5.4262 I-2.4829 J0.6788
G2 X-7.8527 Y-5.4481 I-0.9274 J0.2684
G2 X-7.8584 Y-5.4649 I-0.4004 J0.1262
G2 X-7.8704 Y-5.4786 I-0.0727 J0.0519
G2 X-7.9207 Y-5.5197 I-0.355 J0.383
G2 X-7.9765 Y-5.5553 I-0.3527 J0.491
G2 X-8.0144 Y-5.573 I-0.1323 J0.2346
G2 X-8.0813 Y-5.5902 I-0.1142 J0.3052
G2 X-8.1456 Y-5.5923 I-0.0419 J0.2855
G2 X-8.2138 Y-5.5815 I0.0333 J0.4276
G2 X-8.3443 Y-5.5434 I0.357 J1.4653
G3 X-8.4518 Y-5.5083 I-1.3235 J-3.8749
G3 X-8.4866 Y-5.4995 I-0.1016 J-0.3268
G3 X-8.5323 Y-5.4968 I-0.0322 J-0.1617
G3 X-8.576 Y-5.5074 I0.012 J-0.1448
G3 X-8.6222 Y-5.5353 I0.0691 J-0.1668
G3 X-8.6544 Y-5.5753 I0.082 J-0.0989
G3 X-8.6689 Y-5.62 I0.1307 J-0.0673
G3 X-8.673 Y-5.6721 I0.3346 J-0.0521
G3 X-8.6729 Y-5.6798 I0.3386 J0
G3 X-8.6569 Y-5.7722 I0.3152 J0.0071
G3 X-8.5997 Y-5.9059 I0.8318 J0.2768
G3 X-8.5291 Y-6.0239 I1.1754 J0.6229
G3 X-8.4237 Y-6.1685 I1.9099 J1.2807
G3 X-8.1691 Y-6.451 I2.3007 J1.8173
G3 X-7.8874 Y-6.6911 I1.9366 J1.9874
G2 X-7.855 Y-6.7153 I-8.0243 J-10.8009
G2 X-7.8309 Y-6.7333 I-4.4809 J-5.9938
G2 X-7.8236 Y-6.7389 I-2.7067 J-3.5904
G2 X-7.8201 Y-6.7563 I-2.1201 J-0.4289
G2 X-7.8134 Y-6.7915 I-6.8792 J-1.3331
G2 X-7.7995 Y-6.8666 I-11.8315 J-2.2299
G2 X-7.7808 Y-6.9707 I-22.6847 J-4.1267
G1 X-7.7404 Y-7.1984
G1 X-7.7555 Y-7.2203
G2 X-7.8018 Y-7.2754 I-0.3199 J0.2217
G2 X-7.8667 Y-7.3298 I-0.3658 J0.3701
G2 X-7.9387 Y-7.3716 I-0.2664 J0.3759
G2 X-7.9873 Y-7.3871 I-0.0847 J0.1818
G2 X-7.9983 Y-7.3887 I-0.0252 J0.1382
G2 X-8.0378 Y-7.3921 I-0.1323 J1.2978
G2 X-8.0781 Y-7.3945 I-0.1376 J1.9308
G2 X-8.1193 Y-7.3962 I-0.1018 J2.0216
G3 X-8.1844 Y-7.3997 I0.0405 J-1.3537
G3 X-8.2179 Y-7.4042 I0.0236 J-0.3013
G3 X-8.2555 Y-7.4156 I0.0359 J-0.187
G3 X-8.2881 Y-7.4342 I0.0594 J-0.1418
G3 X-8.3294 Y-7.4771 I0.1095 J-0.1467
G3 X-8.3521 Y-7.5297 I0.1225 J-0.0842
G3 X-8.3557 Y-7.5625 I0.1502 J-0.0328
G3 X-8.3539 Y-7.586 I0.1538 J0
G3 X-8.3361 Y-7.6438 I0.2071 J0.032
G3 X-8.301 Y-7.6986 I0.2335 J0.1108
G3 X-8.2235 Y-7.7811 I0.7397 J0.6175
G3 X-8.139 Y-7.8545 I0.8995 J0.9509
G3 X-8.0489 Y-7.92 I0.8072 J1.0144
G3 X-7.9448 Y-7.9831 I0.8189 J1.2332
G3 X-7.7733 Y-8.0721 I1.8486 J3.3525
G3 X-7.5976 Y-8.1525 I1.7215 J3.5327
G3 X-7.4768 Y-8.1989 I0.6802 J1.5899
G1 X-7.3769 Y-8.233
G1 X-7.2698 Y-8.4522
G2 X-7.1906 Y-8.6179 I-9.3814 J-4.5847
G2 X-7.1732 Y-8.6587 I-0.5997 J-0.2801
G2 X-7.164 Y-8.6922 I-0.1587 J-0.0615
G2 X-7.1636 Y-8.6972 I-0.0302 J-0.005
G2 X-7.164 Y-8.702 I-0.0306 J0
G2 X-7.1865 Y-8.7697 I-0.2164 J0.0346
G2 X-7.2292 Y-8.8258 I-0.1902 J0.1003
G2 X-7.2919 Y-8.8717 I-0.2159 J0.2289
G2 X-7.4154 Y-8.9283 I-0.4189 J0.7513
G3 X-7.4843 Y-8.9599 I0.1656 J-0.4529
G3 X-7.5288 Y-8.9932 I0.1009 J-0.1813
G3 X-7.5635 Y-9.0441 I0.1107 J-0.1127
G3 X-7.5757 Y-9.1043 I0.1417 J-0.0602
G3 X-7.5704 Y-9.1456 I0.1612 J0
G3 X-7.5544 Y-9.1835 I0.1424 J0.0378
G3 X-7.5295 Y-9.2153 I0.1391 J0.0833
G3 X-7.4944 Y-9.2442 I0.1759 J0.1772
G3 X-7.4582 Y-9.2658 I0.1931 J0.2826
G3 X-7.4064 Y-9.2899 I0.3213 J0.623
G3 X-7.3566 Y-9.3091 I0.3937 J0.9453
G3 X-7.2833 Y-9.3339 I0.7487 J2.0998
G3 X-7.1446 Y-9.3714 I0.5019 J1.5787
G3 X-6.9286 Y-9.4137 I0.8713 J3.878
G3 X-6.7104 Y-9.4436 I0.6192 J3.7045
G3 X-6.5851 Y-9.4504 I0.1253 J1.1663
G1 X-6.5626 Y-9.4504
G1 X-6.3967 Y-9.6468
G3 X-6.3956 Y-9.6481 I217.3966 J183.529
G3 X-6.3934 Y-9.6507 I855.4242 J722.1687
G2 X-6.3068 Y-9.7541 I-12.4922 J-10.5463
G2 X-6.28 Y-9.7874 I-1.3051 J-1.0835
G2 X-6.2435 Y-9.8372 I-0.6696 J-0.528
G2 X-6.2321 Y-9.857 I-0.1274 J-0.0863
G2 X-6.2272 Y-9.8718 I-0.0556 J-0.0266
G2 X-6.2267 Y-9.8774 I-0.0285 J-0.0056
G2 X-6.2269 Y-9.8804 I-0.0291 J0
G2 X-6.2283 Y-9.8883 I-0.0507 J0.0052
G2 X-6.2413 Y-9.9317 I-0.7483 J0.2005
G2 X-6.2599 Y-9.9765 I-0.3149 J0.1044
G2 X-6.2822 Y-10.0132 I-0.2399 J0.1209
G2 X-6.31 Y-10.0457 I-0.2154 J0.156
G2 X-6.3462 Y-10.0766 I-0.2241 J0.2252
G3 X-6.4187 Y-10.1526 I0.1787 J-0.2434
G3 X-6.4446 Y-10.2353 I0.1281 J-0.0854
G3 X-6.4446 Y-10.2377 I0.1388 J-0.0024
G3 X-6.4373 Y-10.282 I0.1389 J0
G3 X-6.4152 Y-10.3241 I0.1423 J0.0479
G3 X-6.3831 Y-10.3568 I0.1373 J0.1029
G3 X-6.3401 Y-10.3836 I0.1522 J0.1959
G3 X-6.3016 Y-10.3977 I0.0857 J0.1749
G3 X-6.2451 Y-10.4083 I0.1194 J0.4783
G3 X-6.1913 Y-10.4132 I0.0941 J0.7307
G3 X-6.1192 Y-10.4153 I0.0746 J1.3649
G3 X-5.9724 Y-10.41 I0.0036 J1.9301
G3 X-5.7839 Y-10.3904 I-0.2416 J3.2483
G1 X-5.6091 Y-10.3671
G1 X-5.3321 Y-10.5742
G2 X-5.2103 Y-10.6661 I-8.7754 J-11.7442
G2 X-5.115 Y-10.7399 I-5.568 J-7.2923
G2 X-5.0706 Y-10.7751 I-3.6117 J-4.6034
G2 X-5.0436 Y-10.797 I-1.4033 J-1.7534
G2 X-5.0173 Y-10.8195 I-0.651 J-0.7881
G2 X-5.0086 Y-10.8326 I-0.0546 J-0.0456
G2 X-5.0058 Y-10.8405 I-0.0277 J-0.0142
G2 X-5.0052 Y-10.8471 I-0.0315 J-0.0065
G2 X-5.0052 Y-10.8493 I-0.0322 J0
G2 X-5.0084 Y-10.8664 I-0.077 J0.0053
G2 X-5.0265 Y-10.9057 I-0.1503 J0.0455
G2 X-5.0966 Y-11.0003 I-0.7478 J0.4803
G3 X-5.1346 Y-11.0481 I0.7294 J-0.6188
G3 X-5.1525 Y-11.0765 I0.1792 J-0.1334
G3 X-5.1666 Y-11.1134 I0.1385 J-0.0737
G3 X-5.1713 Y-11.1532 I0.1649 J-0.0398
G3 X-5.1513 Y-11.2318 I0.1642 J0
G3 X-5.0961 Y-11.2906 I0.1407 J0.0767
G3 X-5.0289 Y-11.3184 I0.1134 J0.1798
G3 X-4.9343 Y-11.329 I0.0966 J0.4332
G3 X-4.8423 Y-11.3228 I0.0028 J0.6506
G3 X-4.7221 Y-11.2999 I-0.1648 J1.1917
G3 X-4.6024 Y-11.2656 I-0.3651 J1.4971
G3 X-4.462 Y-11.2138 I-0.7095 J2.1409
G1 X-4.3474 Y-11.1672
G1 X-4.1891 Y-11.2379
G3 X-3.3933 Y-11.5538 I4.1345 J9.254
G3 X-2.6184 Y-11.7859 I2.9779 J8.5358
G3 X-1.8257 Y-11.9471 I2.1658 J8.6198
G3 X-1.0018 Y-12.0387 I1.4424 J9.2246
G2 X-0.9263 Y-12.0437 I-5.7167 J-86.0928
G2 X-0.8594 Y-12.0482 I-4.5532 J-67.6716
G2 X-0.7926 Y-12.0529 I-2.7694 J-40.5614
G2 X-0.7746 Y-12.0542 I-0.2101 J-3.0048
G3 X-0.7542 Y-12.0554 I0.0471 J0.6195
G3 X-0.7037 Y-12.0572 I0.1797 J4.1728
G3 X-0.6535 Y-12.0586 I0.1918 J6.1974
G3 X-0.6014 Y-12.0596 I0.1525 J6.6763
G1 X-0.4764 Y-12.0615
G3 X-0.4129 Y-11.999 I0.0009 J0.0625
G1 X-0.4129 Y-11.6656
G1 X-0.4129 Y-11.3948
G1 X-0.2661 Y-11.3948
G1 X-0.0567 Y-11.3948
G3 X0.0057 Y-11.3343 I0 J0.0625
G1 X0.013 Y-11.1093
G3 X0.0152 Y-11.0153 I-5.4305 J0.1759
G3 X0.0182 Y-10.7653 I-38.7568 J0.5842
G3 X0.0198 Y-10.515 I-57.2069 J0.4933
G3 X0.0204 Y-10.2573 I-60.6676 J0.2577
G1 X0.0204 Y-9.6323
G3 X-0.0421 Y-9.5698 I-0.0625 J0
G1 X-0.2475 Y-9.5698
G1 X-0.3909 Y-9.5698
G1 X-0.3934 Y-9.2679
G1 X-0.3963 Y-8.904
G3 X-0.4532 Y-8.8423 I-0.0625 J-0.0005
G1 X-0.6015 Y-8.8289
G2 X-1.1583 Y-8.7546 I0.5851 J6.5057
G2 X-1.6691 Y-8.6394 I0.9938 J5.5978
G2 X-2.1591 Y-8.4786 I1.3862 J5.0511
G2 X-2.5878 Y-8.287 I1.5588 J4.063
G2 X-2.9907 Y-8.0488 I1.7915 J3.4896
G2 X-3.3223 Y-7.7914 I1.7713 J2.6244
G2 X-3.6169 Y-7.4875 I1.8867 J2.1238
G2 X-3.8385 Y-7.1728 I1.8111 J1.511
G2 X-4.0456 Y-6.703 I1.8967 J1.1162
G2 X-4.128 Y-6.2315 I1.8352 J0.5639
G2 X-4.1302 Y-6.1407 I1.885 J0.0908
G2 X-4.0904 Y-5.7552 I1.8872 J0
G2 X-3.93 Y-5.2833 I2.0051 J-0.4184
G2 X-3.8375 Y-5.11 I2.1744 J-1.0494
G2 X-3.7401 Y-4.9599 I1.7379 J-1.0206
G2 X-3.6299 Y-4.8183 I1.7448 J-1.2452
G2 X-3.4815 Y-4.6552 I2.4477 J-2.0765
G2 X-3.2295 Y-4.4259 I2.0234 J-1.971
G2 X-2.9248 Y-4.207 I2.1414 J-2.6598
G2 X-2.6007 Y-4.0221 I2.0266 J-3.1764
G2 X-2.2264 Y-3.8533 I2.0553 J-4.0579
G2 X-1.4342 Y-3.6095 I1.9196 J-4.8263
G0 Z0.5
M5
M30
