(Created with emc2b post processor 2014/09/30 10:30)
(tool change to 0.1 mm Slot Cutter)
T6 M06 G43
G17 G90 G21
(Sketch 0)
G00 Z2 F125 
G00 X29.466 Y15.841 S7000 M03
G01 Z0 F150
G02 X28.43 Y15.753 I-1.096 J6.777
X27.408 Y15.895 I-0.031 J3.515
X26.663 Y16.252 I0.728 J2.481
X26.08 Y16.835 I1.317 J1.898
X25.615 Y18.035 I2.26 J1.566
X25.574 Y19.352 I6.364 J0.855
X25.825 Y20.947 I9.572 J-0.688
X26.275 Y22.502 I18.927 J-4.637
G01 X21.205 Y15.299
G02 X20.9 Y15.085 I-0.45 J0.317
X20.528 Y15.114 I-0.145 J0.531
X20.26 Y15.374 I0.226 J0.502
X20.219 Y15.744 I0.494 J0.242
G01 X22.317 Y24.559
X17.287 Y17.079
G03 X19.887 Y14.796 I5.961 J4.166
X23.247 Y13.973 I3.36 J6.447
X25.436 Y14.309 I0 J7.291
X27.421 Y15.289 I-2.169 J6.894
G02 X27.833 Y15.381 I0.316 J-0.451
X28.189 Y15.155 I-0.094 J-0.542
X28.28 Y14.744 I-0.451 J-0.316
X28.054 Y14.388 I-0.542 J0.094
X25.768 Y13.259 I-4.786 J6.813
X23.247 Y12.871 I-2.52 J8.007
X19.565 Y13.723 I0 J8.385
X16.634 Y16.108 I3.666 J7.5
G01 X16.047 Y15.234
G02 X15.848 Y15.056 I-0.457 J0.308
X15.589 Y14.991 I-0.259 J0.486
X15.429 Y15.015 I0 J0.547
X15.282 Y15.085 I0.162 J0.529
X15.049 Y15.436 I0.307 J0.457
X15.132 Y15.849 I0.54 J0.106
G01 X23.101 Y27.699
G02 X23.404 Y27.921 I0.457 J-0.307
X23.779 Y27.896 I0.154 J-0.528
X24.051 Y27.637 I-0.221 J-0.504
X24.094 Y27.264 I-0.493 J-0.245
G01 X21.955 Y18.279
X27.947 Y26.791
G03 X25.751 Y28.071 I-4.692 J-5.526
X23.247 Y28.516 I-2.503 J-6.826
X18.106 Y26.386 I0 J-7.271
X15.976 Y21.245 I5.141 J-5.141
X16.07 Y20.07 I7.348 J0
X16.353 Y18.927 I7.108 J1.15
G02 X16.324 Y18.506 I-0.522 J-0.175
X16.006 Y18.229 I-0.493 J0.245
X15.92 Y18.207 I-0.177 J0.53
X15.831 Y18.2 I-0.089 J0.544
X15.509 Y18.303 I0 J0.55
X15.308 Y18.575 I0.321 J0.447
X14.983 Y19.892 I7.875 J2.646
X14.874 Y21.245 I8.342 J1.352
X17.326 Y27.165 I8.373 J0
X23.247 Y29.618 I5.92 J-5.921
X26.084 Y29.123 I0 J-8.373
X28.583 Y27.695 I-2.825 J-7.849
G01 X28.753 Y27.936
G02 X29.096 Y28.159 I0.45 J-0.316
X29.499 Y28.084 I0.107 J-0.541
X29.738 Y27.751 I-0.295 J-0.464
X29.682 Y27.345 I-0.535 J-0.132
G03 X28.612 Y25.287 I25.681 J-14.656
X27.696 Y23.156 I30.835 J-14.521
X27.087 Y21.41 I23.309 J-9.098
X26.701 Y19.608 I10.124 J-3.112
X26.651 Y18.975 I7.022 J-0.875
X26.681 Y18.342 I3.844 J-0.131
X26.782 Y17.882 I2.775 J0.364
X26.986 Y17.462 I1.459 J0.449
X27.906 Y16.901 I1.094 J0.758
X29.076 Y16.898 I0.595 J4.521
X30.149 Y18.954 I-5.791 J4.332
X30.519 Y21.245 I-6.908 J2.29
X30.226 Y23.291 I-7.294 J0
X29.368 Y25.172 I-6.936 J-2.027
G02 X29.293 Y25.587 I0.463 J0.298
X29.533 Y25.934 I0.538 J-0.116
X29.948 Y26.009 I0.298 J-0.463
X30.295 Y25.768 I-0.116 J-0.538
X31.283 Y23.602 I-7.004 J-4.504
X31.621 Y21.245 I-8.057 J-2.357
X31.155 Y18.49 I-8.382 J0
X29.809 Y16.042 I-7.888 J2.744
X29.799 Y16.032 I-0.057 J0.045
G03 X29.789 Y16.022 I0.06 J-0.071
G02 X29.762 Y15.993 I-0.527 J0.465
X29.733 Y15.967 I-0.34 J0.336
X29.716 Y15.952 I-0.477 J0.583
X29.697 Y15.939 I-0.393 J0.512
X29.668 Y15.919 I-0.266 J0.366
X29.637 Y15.901 I-0.315 J0.514
X29.616 Y15.891 I-0.466 J0.871
X29.595 Y15.881 I-0.204 J0.405
X29.563 Y15.868 I-0.149 J0.346
X29.53 Y15.858 I-0.286 J0.874
G03 X29.506 Y15.851 I0.525 J-1.837
G02 X29.483 Y15.846 I-0.073 J0.244
G00 Z2
G90
(Sketch 14)
X32.022 Y12.551 S7000 M03
G01 Z0
G03 X35.686 Y21.395 I-8.844 J8.844
X23.178 Y33.902 I-12.507 J0
X10.671 Y21.395 I0 J-12.507
X23.178 Y8.887 I12.507 J0
X32.022 Y12.551 I0 J12.507
G00 Z2
G90
(Sketch 2)
X1.1 Y5.097 S7000 M03
G01 Z0
X1.1 Y1.459
X2.843 Y1.459
X2.843 Y6.165
X4.58 Y1.459
X4.588 Y1.459
X4.588 Y1.457
X5.206 Y1.457
X5.834 Y1.457
X7.571 Y6.163
X7.571 Y1.457
X9.314 Y1.457
X9.314 Y8.733
X7.571 Y8.733
X7.084 Y8.733
X5.218 Y3.66
X5.196 Y3.66
X3.33 Y8.735
X2.843 Y8.735
X1.1 Y8.735
X1.1 Y5.097
G00 Z2
G90
(Sketch 3)
X14.725 Y4.116 S7000 M03
G01 Z0
X14.725 Y5.188
G03 X14.612 Y5.88 I-1.532 J0.104
X14.177 Y6.413 I-1.105 J-0.457
X13.285 Y6.755 I-1.179 J-1.744
X12.309 Y6.822 I-0.976 J-7.088
X11.321 Y6.752 I0 J-7.05
X10.412 Y6.413 I0.316 J-2.234
X9.942 Y5.885 I0.719 J-1.113
X9.78 Y5.188 I1.417 J-0.697
G01 X11.562 Y5.098
G02 X11.596 Y5.312 I0.686 J0
X11.709 Y5.492 I0.417 J-0.136
X11.841 Y5.582 I0.332 J-0.346
X11.994 Y5.632 I0.294 J-0.64
X12.089 Y5.645 I0.188 J-1.071
X12.184 Y5.648 I0.086 J-0.992
X12.48 Y5.617 I-0.013 J-1.561
X12.729 Y5.48 I-0.093 J-0.462
X12.841 Y5.276 I-0.336 J-0.319
X12.884 Y5.04 I-1.622 J-0.417
X12.901 Y4.809 I-2.519 J-0.296
X12.904 Y4.577 I-8.98 J-0.231
G03 X12.182 Y4.62 I-0.973 J-10.279
X11.46 Y4.592 I-0.139 J-5.735
X10.93 Y4.504 I0.433 J-4.252
X10.428 Y4.325 I0.517 J-2.238
X10.078 Y4.093 I0.753 J-1.521
X9.809 Y3.774 I0.838 J-0.979
X9.65 Y3.373 I1.161 J-0.693
X9.603 Y2.941 I1.953 J-0.431
X9.689 Y2.287 I1.975 J-0.073
X10.043 Y1.751 I1.09 J0.335
X10.716 Y1.428 I0.957 J1.132
X11.481 Y1.354 I0.764 J3.918
X12.33 Y1.537 I0.011 J2.005
X12.996 Y2.083 I-0.712 J1.548
X13.093 Y1.76 I3.456 J0.851
X13.245 Y1.461 I1.172 J0.41
G01 X15.052 Y1.456
G02 X14.904 Y1.732 I0.687 J0.547
X14.823 Y2.039 I2.692 J0.877
X14.752 Y2.538 I3.965 J0.816
X14.726 Y3.043 I9.444 J0.74
G01 X14.725 Y4.116
G00 Z2
G90
(Sketch 4)
X12.904 Y3.289 S7000 M03
G01 Z0
X12.904 Y2.878
G02 X12.751 Y2.731 I-0.431 J0.296
X12.559 Y2.633 I-0.66 J1.051
X12.317 Y2.559 I-0.527 J1.293
X12.064 Y2.531 I-0.273 J1.313
X11.832 Y2.552 I-0.017 J1.11
X11.619 Y2.64 I0.112 J0.569
X11.475 Y2.809 I0.232 J0.344
X11.426 Y3.029 I0.472 J0.219
X11.467 Y3.323 I1.091 J0
X11.62 Y3.565 I0.479 J-0.134
X11.891 Y3.69 I0.352 J-0.405
X12.201 Y3.701 I0.199 J-1.314
G01 X12.904 Y3.701
X12.904 Y3.289
G00 Z2
G90
(Sketch 5)
X15.124 Y5.097 S7000 M03
G01 Z0
X15.124 Y1.459
X16.668 Y1.459
X16.668 Y2.863
X17.062 Y3.336
X18.01 Y1.459
X19.929 Y1.459
X18.127 Y4.61
X19.977 Y6.822
X18.113 Y6.822
X16.668 Y5.097
X16.668 Y8.735
X15.124 Y8.735
X15.124 Y5.097
G00 Z2
G90
(Sketch 7)
X22.817 Y3.701 S7000 M03
G01 Z0
X24.486 Y3.701
X24.512 Y4.582
G03 X24.37 Y5.363 I-2.211 J0
X23.96 Y6.042 I-2.051 J-0.774
X23.06 Y6.642 I-1.585 J-1.403
X21.972 Y6.823 I-1.088 J-3.18
X20.875 Y6.644 I0 J-3.453
X19.955 Y6.055 I0.711 J-2.124
X19.506 Y5.374 I1.725 J-1.624
X19.296 Y4.583 I2.511 J-1.089
X19.267 Y3.802 I5.4 J-0.593
X19.418 Y3.043 I2.399 J0.083
X19.758 Y2.335 I2.742 J0.879
X20.303 Y1.78 I1.694 J1.119
X21.054 Y1.45 I1.246 J1.816
X21.878 Y1.354 I0.838 J3.628
X22.864 Y1.423 I0.025 J6.746
X23.763 Y1.771 I-0.305 J2.122
X24.223 Y2.325 I-0.728 J1.072
X24.363 Y3.043 I-1.546 J0.675
G01 X22.744 Y3.122
G02 X22.641 Y2.911 I-1.058 J0.387
X22.48 Y2.746 I-0.459 J0.288
X22.34 Y2.682 I-0.28 J0.426
X22.188 Y2.645 I-0.525 J1.832
X22.094 Y2.634 I-0.158 J0.92
X21.998 Y2.629 I-0.149 J2.181
X21.383 Y2.906 I-0.018 J0.779
X21.142 Y3.566 I0.782 J0.659
G01 X21.148 Y3.701
X22.817 Y3.701
G00 Z2
G90
(Sketch 8)
X21.943 Y4.587 S7000 M03
G01 Z0
X21.148 Y4.587
G02 X21.162 Y5.005 I2.317 J0.13
X21.313 Y5.383 I0.803 J-0.1
X21.583 Y5.587 I0.474 J-0.347
X21.925 Y5.648 I0.342 J-0.924
X22.271 Y5.586 I0 J-0.997
X22.547 Y5.383 I-0.213 J-0.578
X22.709 Y5.006 I-0.666 J-0.51
X22.738 Y4.587 I-2.272 J-0.366
G01 X21.943 Y4.587
G00 Z2
G90
(Sketch 9)
X25.36 Y3.09 S7000 M03
G01 Z0
X24.551 Y3.05
G03 X24.709 Y2.331 I1.704 J-0.002
X25.181 Y1.778 I1.224 J0.568
X26.086 Y1.427 I1.23 J1.832
X27.076 Y1.354 I0.99 J6.648
X28.083 Y1.426 I0 J7.083
X29.007 Y1.772 I-0.327 J2.279
X29.491 Y2.314 I-0.745 J1.15
X29.661 Y3.028 I-1.469 J0.728
X29.174 Y4.025 I-1.263 J0
X28.096 Y4.583 I-2.038 J-2.617
G01 X28.1 Y4.587
G02 X28.085 Y4.589 I0.122 J0.987
G03 X28.07 Y4.591 I-0.115 J-0.833
X27.833 Y4.654 I-1.372 J-4.637
X27.593 Y4.705 I-1.081 J-4.477
G01 X27.593 Y4.706
G03 X27.592 Y4.706 I-0.004 J-0.024
G02 X27.591 Y4.706 I0.001 J0.012
G03 X27.494 Y4.723 I-1.038 J-5.597
X27.395 Y4.737 I-0.326 J-1.948
G01 X27.395 Y4.736
G02 X26.996 Y4.823 I0.953 J5.366
X26.625 Y4.981 I0.326 J1.276
X26.466 Y5.136 I0.28 J0.45
X26.425 Y5.342 I0.227 J0.152
X26.445 Y5.542 I0.369 J0.063
X26.571 Y5.695 I0.294 J-0.114
X26.86 Y5.795 I0.363 J-0.577
X27.173 Y5.813 I0.313 J-2.866
X27.51 Y5.78 I0 J-1.765
X27.815 Y5.647 I-0.146 J-0.753
X27.999 Y5.429 I-0.351 J-0.483
X28.082 Y5.152 I-0.763 J-0.378
G01 X29.654 Y5.232
G03 X29.497 Y5.91 I-1.543 J-0
X29.04 Y6.425 I-1.158 J-0.567
X28.158 Y6.755 I-1.189 J-1.835
X27.199 Y6.823 I-0.959 J-6.751
X26.224 Y6.757 I0 J-7.195
X25.324 Y6.431 I0.308 J-2.256
X24.859 Y5.926 I0.692 J-1.106
X24.692 Y5.254 I1.315 J-0.682
X24.941 Y4.529 I1.178 J0
X25.546 Y4.015 I1.545 J1.205
X26.163 Y3.755 I1.582 J2.894
X26.816 Y3.601 I1.493 J4.873
G02 X26.817 Y3.601 I-0.003 J-0.018
G03 X26.819 Y3.601 I0.002 J0.01
G02 X27.259 Y3.505 I-1.26 J-6.871
X27.673 Y3.338 I-0.395 J-1.575
X27.851 Y3.187 I-0.319 J-0.556
X27.902 Y2.978 I-0.194 J-0.158
X27.871 Y2.762 I-0.429 J-0.049
X27.732 Y2.597 I-0.334 J0.14
X27.432 Y2.489 I-0.385 J0.604
X27.106 Y2.469 I-0.326 J2.709
X26.759 Y2.502 I0 J1.883
X26.445 Y2.635 I0.147 J0.787
X26.256 Y2.851 I0.348 J0.493
X26.17 Y3.13 I0.736 J0.379
G01 X25.36 Y3.09
G00 Z2
G90
(Sketch 10)
X29.898 Y4.141 S7000 M03
G01 Z0
X29.898 Y6.823
X31.645 Y6.823
X31.645 Y6.21
G02 X32.307 Y6.783 I1.243 J-0.766
X33.186 Y6.966 I0.879 J-2.023
X33.649 Y6.918 I0 J-2.267
X34.076 Y6.745 I-0.263 J-1.264
X34.411 Y6.428 I-0.638 J-1.009
X34.629 Y6.016 I-1.464 J-1.041
X35.39 Y6.706 I1.919 J-1.354
X36.373 Y6.966 I0.983 J-1.733
X37.059 Y6.84 I0 J-1.931
X37.6 Y6.429 I-0.425 J-1.12
X37.954 Y5.551 I-1.548 J-1.135
X38.02 Y4.579 I-7.162 J-0.972
G01 X38.02 Y1.459
X36.272 Y1.459
X36.272 Y4.579
G03 X36.266 Y4.997 I-2.685 J0.166
X36.132 Y5.381 I-0.849 J-0.079
X35.893 Y5.583 I-0.454 J-0.294
X35.579 Y5.648 I-0.313 J-0.724
X35.144 Y5.565 I-0.021 J-1.063
X34.793 Y5.301 I0.351 J-0.832
G02 X34.824 Y4.941 I-5.07 J-0.611
X34.833 Y4.579 I-7.323 J-0.362
G01 X34.833 Y1.459
X33.085 Y1.459
X33.085 Y4.579
G03 X33.078 Y4.997 I-2.685 J0.166
X32.945 Y5.381 I-0.849 J-0.079
X32.706 Y5.583 I-0.454 J-0.294
X32.392 Y5.648 I-0.313 J-0.724
X31.979 Y5.587 I-0.085 J-0.846
X31.645 Y5.337 I0.327 J-0.785
G01 X31.645 Y1.459
X29.898 Y1.459
X29.898 Y4.141
G00 Z2
G90
(Sketch 13)
X38.312 Y4.141 S7000 M03
G01 Z0
X38.312 Y1.459
X40.146 Y1.459
X40.142 Y5.648
X40.939 Y5.648
X40.942 Y3.208
G03 X41.035 Y2.443 I3.203 J0
X41.408 Y1.799 I1.292 J0.317
X42.041 Y1.447 I0.988 J1.034
X42.777 Y1.354 I0.736 J2.864
X43.064 Y1.36 I0 J7.248
X43.351 Y1.382 I-0.156 J3.935
X43.625 Y1.421 I-0.517 J4.571
X43.897 Y1.474 I-1.264 J7.237
G01 X43.768 Y2.723
G02 X43.639 Y2.7 I-1.042 J5.475
X43.511 Y2.683 I-0.331 J1.99
X43.374 Y2.675 I-0.179 J1.794
X43.237 Y2.673 I-0.136 J5.766
X43.051 Y2.703 I0 J0.59
X42.893 Y2.801 I0.126 J0.381
X42.79 Y2.993 I0.27 J0.27
X42.766 Y3.218 I1.077 J0.225
G01 X42.766 Y5.648
X43.757 Y5.648
X43.757 Y6.823
X42.766 Y6.823
X42.766 Y8.21
X40.942 Y8.21
X40.942 Y6.823
X40.12 Y6.823
X38.312 Y6.823
X38.312 Y4.141
G00 Z2
G90
(Sketch 12)
X39.229 Y8.735 S7000 M03
G01 Z0
X38.312 Y8.735
X38.312 Y7.601
X40.146 Y7.601
X40.146 Y8.735
X39.229 Y8.735
G00 Z2
G90
(Sketch 11)
X44.072 Y5.097 S7000 M03
G01 Z0
X44.072 Y1.459
X45.819 Y1.459
X45.819 Y5.393
G02 X46.166 Y5.616 I0.741 J-0.769
X46.571 Y5.69 I0.383 J-0.964
X46.955 Y5.634 I0.023 J-1.203
X47.264 Y5.421 I-0.191 J-0.608
X47.432 Y5.024 I-0.638 J-0.503
X47.447 Y4.579 I-2.259 J-0.298
G01 X47.447 Y1.459
X49.194 Y1.459
X49.194 Y4.579
G03 X49.098 Y5.564 I-5.092 J0
X48.677 Y6.429 I-1.846 J-0.364
X48.081 Y6.839 I-1.078 J-0.929
X47.354 Y6.966 I-0.726 J-2.018
X46.521 Y6.792 I0 J-2.081
X45.819 Y6.306 I0.887 J-2.032
G01 X45.819 Y8.735
X44.072 Y8.735
X44.072 Y5.097
G00 Z2
T0 M06 M02
