(Generated by PartKam Version 0.05)

G20 G90 G40

(profile 1)
G0 Z0.3
T0 M6
G17
M3
G0 X6.1639 Y0.4417
G1 Z-0.1 F30
G1 X6.1894 Y0.4275 F25
G1 X6.2173 Y0.4205
G1 X6.246 Y0.4209
G1 X6.2737 Y0.4287
G1 X6.2984 Y0.4435
G1 X6.3184 Y0.4641
G1 X6.3324 Y0.4892
G1 X6.3394 Y0.5171
G1 X6.339 Y0.5459
G1 X6.3311 Y0.5735
G1 X6.3164 Y0.5982
G1 X6.2958 Y0.6182
G1 X6.2706 Y0.6322
G1 X6.2428 Y0.6393
G1 X6.214 Y0.6388
G1 X6.1864 Y0.631
G1 X6.1617 Y0.6162
G1 X6.1417 Y0.5956
G1 X6.1276 Y0.5705
G1 X6.1206 Y0.5426
G1 X6.1211 Y0.5139
G1 X6.129 Y0.4859
G1 X6.1437 Y0.4611
G1 X6.1639 Y0.4417
G1 Z-0.2 F30
G1 X6.1894 Y0.4275 F25
G1 X6.2173 Y0.4205
G1 X6.246 Y0.4209
G1 X6.2737 Y0.4287
G1 X6.2984 Y0.4435
G1 X6.3184 Y0.4641
G1 X6.3324 Y0.4892
G1 X6.3394 Y0.5171
G1 X6.339 Y0.5459
G1 X6.3311 Y0.5735
G1 X6.3164 Y0.5982
G1 X6.2958 Y0.6182
G1 X6.2706 Y0.6322
G1 X6.2428 Y0.6393
G1 X6.214 Y0.6388
G1 X6.1864 Y0.631
G1 X6.1617 Y0.6162
G1 X6.1417 Y0.5956
G1 X6.1276 Y0.5705
G1 X6.1206 Y0.5426
G1 X6.1211 Y0.5139
G1 X6.129 Y0.4859
G1 X6.1437 Y0.4611
G1 X6.1639 Y0.4417
G1 Z-0.3 F30
G1 X6.1894 Y0.4275 F25
G1 X6.2173 Y0.4205
G1 X6.246 Y0.4209
G1 X6.2737 Y0.4287
G1 X6.2984 Y0.4435
G1 X6.3184 Y0.4641
G1 X6.3324 Y0.4892
G1 X6.3394 Y0.5171
G1 X6.339 Y0.5459
G1 X6.3311 Y0.5735
G1 X6.3164 Y0.5982
G1 X6.2958 Y0.6182
G1 X6.2706 Y0.6322
G1 X6.2428 Y0.6393
G1 X6.214 Y0.6388
G1 X6.1864 Y0.631
G1 X6.1617 Y0.6162
G1 X6.1417 Y0.5956
G1 X6.1276 Y0.5705
G1 X6.1206 Y0.5426
G1 X6.1211 Y0.5139
G1 X6.129 Y0.4859
G1 X6.1437 Y0.4611
G1 X6.1639 Y0.4417
G1 Z-0.4 F30
G1 X6.1894 Y0.4275 F25
G1 X6.2173 Y0.4205
G1 X6.246 Y0.4209
G1 X6.2737 Y0.4287
G1 X6.2984 Y0.4435
G1 X6.3184 Y0.4641
G1 X6.3324 Y0.4892
G1 X6.3394 Y0.5171
G1 X6.339 Y0.5459
G1 X6.3311 Y0.5735
G1 X6.3164 Y0.5982
G1 X6.2958 Y0.6182
G1 X6.2706 Y0.6322
G1 X6.2428 Y0.6393
G1 X6.214 Y0.6388
G1 X6.1864 Y0.631
G1 X6.1617 Y0.6162
G1 X6.1417 Y0.5956
G1 X6.1276 Y0.5705
G1 X6.1206 Y0.5426
G1 X6.1211 Y0.5139
G1 X6.129 Y0.4859
G1 X6.1437 Y0.4611
G1 X6.1639 Y0.4417
G1 Z-0.5 F30
G1 X6.1894 Y0.4275 F25
G1 X6.2173 Y0.4205
G1 X6.246 Y0.4209
G1 X6.2737 Y0.4287
G1 X6.2984 Y0.4435
G1 X6.3184 Y0.4641
G1 X6.3324 Y0.4892
G1 X6.3394 Y0.5171
G1 X6.339 Y0.5459
G1 X6.3311 Y0.5735
G1 X6.3164 Y0.5982
G1 X6.2958 Y0.6182
G1 X6.2706 Y0.6322
G1 X6.2428 Y0.6393
G1 X6.214 Y0.6388
G1 X6.1864 Y0.631
G1 X6.1617 Y0.6162
G1 X6.1417 Y0.5956
G1 X6.1276 Y0.5705
G1 X6.1206 Y0.5426
G1 X6.1211 Y0.5139
G1 X6.129 Y0.4859
G1 X6.1437 Y0.4611
G1 X6.1639 Y0.4417
G1 Z-0.6 F30
G1 X6.1894 Y0.4275 F25
G1 X6.2173 Y0.4205
G1 X6.246 Y0.4209
G1 X6.2737 Y0.4287
G1 X6.2984 Y0.4435
G1 X6.3184 Y0.4641
G1 X6.3324 Y0.4892
G1 X6.3394 Y0.5171
G1 X6.339 Y0.5459
G1 X6.3311 Y0.5735
G1 X6.3164 Y0.5982
G1 X6.2958 Y0.6182
G1 X6.2706 Y0.6322
G1 X6.2428 Y0.6393
G1 X6.214 Y0.6388
G1 X6.1864 Y0.631
G1 X6.1617 Y0.6162
G1 X6.1417 Y0.5956
G1 X6.1276 Y0.5705
G1 X6.1206 Y0.5426
G1 X6.1211 Y0.5139
G1 X6.129 Y0.4859
G1 X6.1437 Y0.4611
G1 X6.1639 Y0.4417
G1 Z-0.65 F30
G1 X6.1894 Y0.4275 F25
G1 X6.2173 Y0.4205
G1 X6.246 Y0.4209
G1 X6.2737 Y0.4287
G1 X6.2984 Y0.4435
G1 X6.3184 Y0.4641
G1 X6.3324 Y0.4892
G1 X6.3394 Y0.5171
G1 X6.339 Y0.5459
G1 X6.3311 Y0.5735
G1 X6.3164 Y0.5982
G1 X6.2958 Y0.6182
G1 X6.2706 Y0.6322
G1 X6.2428 Y0.6393
G1 X6.214 Y0.6388
G1 X6.1864 Y0.631
G1 X6.1617 Y0.6162
G1 X6.1417 Y0.5956
G1 X6.1276 Y0.5705
G1 X6.1206 Y0.5426
G1 X6.1211 Y0.5139
G1 X6.129 Y0.4859
G1 X6.1437 Y0.4611
G1 X6.1639 Y0.4417
G0 Z0.3
G0 X0.5851 Y0.5268
G1 Z-0.1 F30
G1 X0.6017 Y0.5187 F25
G1 X0.6198 Y0.5152
G1 X0.6382 Y0.5165
G1 X0.6557 Y0.5225
G1 X0.671 Y0.5329
G1 X0.6831 Y0.5468
G1 X0.6912 Y0.5634
G1 X0.6948 Y0.5816
G1 X0.6935 Y0.6
G1 X0.6874 Y0.6174
G1 X0.6771 Y0.6328
G1 X0.6632 Y0.6449
G1 X0.6465 Y0.653
G1 X0.6284 Y0.6565
G1 X0.61 Y0.6552
G1 X0.5925 Y0.6492
G1 X0.5772 Y0.6388
G1 X0.5651 Y0.6249
G1 X0.557 Y0.6083
G1 X0.5535 Y0.5902
G1 X0.5548 Y0.5717
G1 X0.5608 Y0.5543
G1 X0.5711 Y0.5389
G1 X0.5851 Y0.5268
G1 Z-0.2 F30
G1 X0.6017 Y0.5187 F25
G1 X0.6198 Y0.5152
G1 X0.6382 Y0.5165
G1 X0.6557 Y0.5225
G1 X0.671 Y0.5329
G1 X0.6831 Y0.5468
G1 X0.6912 Y0.5634
G1 X0.6948 Y0.5816
G1 X0.6935 Y0.6
G1 X0.6874 Y0.6174
G1 X0.6771 Y0.6328
G1 X0.6632 Y0.6449
G1 X0.6465 Y0.653
G1 X0.6284 Y0.6565
G1 X0.61 Y0.6552
G1 X0.5925 Y0.6492
G1 X0.5772 Y0.6388
G1 X0.5651 Y0.6249
G1 X0.557 Y0.6083
G1 X0.5535 Y0.5902
G1 X0.5548 Y0.5717
G1 X0.5608 Y0.5543
G1 X0.5711 Y0.5389
G1 X0.5851 Y0.5268
G1 Z-0.3 F30
G1 X0.6017 Y0.5187 F25
G1 X0.6198 Y0.5152
G1 X0.6382 Y0.5165
G1 X0.6557 Y0.5225
G1 X0.671 Y0.5329
G1 X0.6831 Y0.5468
G1 X0.6912 Y0.5634
G1 X0.6948 Y0.5816
G1 X0.6935 Y0.6
G1 X0.6874 Y0.6174
G1 X0.6771 Y0.6328
G1 X0.6632 Y0.6449
G1 X0.6465 Y0.653
G1 X0.6284 Y0.6565
G1 X0.61 Y0.6552
G1 X0.5925 Y0.6492
G1 X0.5772 Y0.6388
G1 X0.5651 Y0.6249
G1 X0.557 Y0.6083
G1 X0.5535 Y0.5902
G1 X0.5548 Y0.5717
G1 X0.5608 Y0.5543
G1 X0.5711 Y0.5389
G1 X0.5851 Y0.5268
G1 Z-0.4 F30
G1 X0.6017 Y0.5187 F25
G1 X0.6198 Y0.5152
G1 X0.6382 Y0.5165
G1 X0.6557 Y0.5225
G1 X0.671 Y0.5329
G1 X0.6831 Y0.5468
G1 X0.6912 Y0.5634
G1 X0.6948 Y0.5816
G1 X0.6935 Y0.6
G1 X0.6874 Y0.6174
G1 X0.6771 Y0.6328
G1 X0.6632 Y0.6449
G1 X0.6465 Y0.653
G1 X0.6284 Y0.6565
G1 X0.61 Y0.6552
G1 X0.5925 Y0.6492
G1 X0.5772 Y0.6388
G1 X0.5651 Y0.6249
G1 X0.557 Y0.6083
G1 X0.5535 Y0.5902
G1 X0.5548 Y0.5717
G1 X0.5608 Y0.5543
G1 X0.5711 Y0.5389
G1 X0.5851 Y0.5268
G1 Z-0.5 F30
G1 X0.6017 Y0.5187 F25
G1 X0.6198 Y0.5152
G1 X0.6382 Y0.5165
G1 X0.6557 Y0.5225
G1 X0.671 Y0.5329
G1 X0.6831 Y0.5468
G1 X0.6912 Y0.5634
G1 X0.6948 Y0.5816
G1 X0.6935 Y0.6
G1 X0.6874 Y0.6174
G1 X0.6771 Y0.6328
G1 X0.6632 Y0.6449
G1 X0.6465 Y0.653
G1 X0.6284 Y0.6565
G1 X0.61 Y0.6552
G1 X0.5925 Y0.6492
G1 X0.5772 Y0.6388
G1 X0.5651 Y0.6249
G1 X0.557 Y0.6083
G1 X0.5535 Y0.5902
G1 X0.5548 Y0.5717
G1 X0.5608 Y0.5543
G1 X0.5711 Y0.5389
G1 X0.5851 Y0.5268
G1 Z-0.6 F30
G1 X0.6017 Y0.5187 F25
G1 X0.6198 Y0.5152
G1 X0.6382 Y0.5165
G1 X0.6557 Y0.5225
G1 X0.671 Y0.5329
G1 X0.6831 Y0.5468
G1 X0.6912 Y0.5634
G1 X0.6948 Y0.5816
G1 X0.6935 Y0.6
G1 X0.6874 Y0.6174
G1 X0.6771 Y0.6328
G1 X0.6632 Y0.6449
G1 X0.6465 Y0.653
G1 X0.6284 Y0.6565
G1 X0.61 Y0.6552
G1 X0.5925 Y0.6492
G1 X0.5772 Y0.6388
G1 X0.5651 Y0.6249
G1 X0.557 Y0.6083
G1 X0.5535 Y0.5902
G1 X0.5548 Y0.5717
G1 X0.5608 Y0.5543
G1 X0.5711 Y0.5389
G1 X0.5851 Y0.5268
G1 Z-0.65 F30
G1 X0.6017 Y0.5187 F25
G1 X0.6198 Y0.5152
G1 X0.6382 Y0.5165
G1 X0.6557 Y0.5225
G1 X0.671 Y0.5329
G1 X0.6831 Y0.5468
G1 X0.6912 Y0.5634
G1 X0.6948 Y0.5816
G1 X0.6935 Y0.6
G1 X0.6874 Y0.6174
G1 X0.6771 Y0.6328
G1 X0.6632 Y0.6449
G1 X0.6465 Y0.653
G1 X0.6284 Y0.6565
G1 X0.61 Y0.6552
G1 X0.5925 Y0.6492
G1 X0.5772 Y0.6388
G1 X0.5651 Y0.6249
G1 X0.557 Y0.6083
G1 X0.5535 Y0.5902
G1 X0.5548 Y0.5717
G1 X0.5608 Y0.5543
G1 X0.5711 Y0.5389
G1 X0.5851 Y0.5268
G0 Z0.3
G0 X2.8292 Y0.4881
G1 Z-0.1 F30
G1 X2.8475 Y0.4906 F25
G1 X2.8646 Y0.4976
G1 X2.8792 Y0.5089
G1 X2.8905 Y0.5235
G1 X2.8975 Y0.5406
G1 X2.8999 Y0.5589
G1 X2.8975 Y0.5772
G1 X2.8905 Y0.5943
G1 X2.8792 Y0.609
G1 X2.8646 Y0.6202
G1 X2.8475 Y0.6273
G1 X2.8292 Y0.6297
G1 X2.8108 Y0.6273
G1 X2.7938 Y0.6202
G1 X2.7791 Y0.609
G1 X2.7679 Y0.5943
G1 X2.7608 Y0.5772
G1 X2.7584 Y0.5589
G1 X2.7608 Y0.5406
G1 X2.7679 Y0.5235
G1 X2.7791 Y0.5089
G1 X2.7938 Y0.4976
G1 X2.8108 Y0.4906
G1 X2.8292 Y0.4881
G1 Z-0.2 F30
G1 X2.8475 Y0.4906 F25
G1 X2.8646 Y0.4976
G1 X2.8792 Y0.5089
G1 X2.8905 Y0.5235
G1 X2.8975 Y0.5406
G1 X2.8999 Y0.5589
G1 X2.8975 Y0.5772
G1 X2.8905 Y0.5943
G1 X2.8792 Y0.609
G1 X2.8646 Y0.6202
G1 X2.8475 Y0.6273
G1 X2.8292 Y0.6297
G1 X2.8108 Y0.6273
G1 X2.7938 Y0.6202
G1 X2.7791 Y0.609
G1 X2.7679 Y0.5943
G1 X2.7608 Y0.5772
G1 X2.7584 Y0.5589
G1 X2.7608 Y0.5406
G1 X2.7679 Y0.5235
G1 X2.7791 Y0.5089
G1 X2.7938 Y0.4976
G1 X2.8108 Y0.4906
G1 X2.8292 Y0.4881
G1 Z-0.3 F30
G1 X2.8475 Y0.4906 F25
G1 X2.8646 Y0.4976
G1 X2.8792 Y0.5089
G1 X2.8905 Y0.5235
G1 X2.8975 Y0.5406
G1 X2.8999 Y0.5589
G1 X2.8975 Y0.5772
G1 X2.8905 Y0.5943
G1 X2.8792 Y0.609
G1 X2.8646 Y0.6202
G1 X2.8475 Y0.6273
G1 X2.8292 Y0.6297
G1 X2.8108 Y0.6273
G1 X2.7938 Y0.6202
G1 X2.7791 Y0.609
G1 X2.7679 Y0.5943
G1 X2.7608 Y0.5772
G1 X2.7584 Y0.5589
G1 X2.7608 Y0.5406
G1 X2.7679 Y0.5235
G1 X2.7791 Y0.5089
G1 X2.7938 Y0.4976
G1 X2.8108 Y0.4906
G1 X2.8292 Y0.4881
G1 Z-0.4 F30
G1 X2.8475 Y0.4906 F25
G1 X2.8646 Y0.4976
G1 X2.8792 Y0.5089
G1 X2.8905 Y0.5235
G1 X2.8975 Y0.5406
G1 X2.8999 Y0.5589
G1 X2.8975 Y0.5772
G1 X2.8905 Y0.5943
G1 X2.8792 Y0.609
G1 X2.8646 Y0.6202
G1 X2.8475 Y0.6273
G1 X2.8292 Y0.6297
G1 X2.8108 Y0.6273
G1 X2.7938 Y0.6202
G1 X2.7791 Y0.609
G1 X2.7679 Y0.5943
G1 X2.7608 Y0.5772
G1 X2.7584 Y0.5589
G1 X2.7608 Y0.5406
G1 X2.7679 Y0.5235
G1 X2.7791 Y0.5089
G1 X2.7938 Y0.4976
G1 X2.8108 Y0.4906
G1 X2.8292 Y0.4881
G1 Z-0.5 F30
G1 X2.8475 Y0.4906 F25
G1 X2.8646 Y0.4976
G1 X2.8792 Y0.5089
G1 X2.8905 Y0.5235
G1 X2.8975 Y0.5406
G1 X2.8999 Y0.5589
G1 X2.8975 Y0.5772
G1 X2.8905 Y0.5943
G1 X2.8792 Y0.609
G1 X2.8646 Y0.6202
G1 X2.8475 Y0.6273
G1 X2.8292 Y0.6297
G1 X2.8108 Y0.6273
G1 X2.7938 Y0.6202
G1 X2.7791 Y0.609
G1 X2.7679 Y0.5943
G1 X2.7608 Y0.5772
G1 X2.7584 Y0.5589
G1 X2.7608 Y0.5406
G1 X2.7679 Y0.5235
G1 X2.7791 Y0.5089
G1 X2.7938 Y0.4976
G1 X2.8108 Y0.4906
G1 X2.8292 Y0.4881
G1 Z-0.6 F30
G1 X2.8475 Y0.4906 F25
G1 X2.8646 Y0.4976
G1 X2.8792 Y0.5089
G1 X2.8905 Y0.5235
G1 X2.8975 Y0.5406
G1 X2.8999 Y0.5589
G1 X2.8975 Y0.5772
G1 X2.8905 Y0.5943
G1 X2.8792 Y0.609
G1 X2.8646 Y0.6202
G1 X2.8475 Y0.6273
G1 X2.8292 Y0.6297
G1 X2.8108 Y0.6273
G1 X2.7938 Y0.6202
G1 X2.7791 Y0.609
G1 X2.7679 Y0.5943
G1 X2.7608 Y0.5772
G1 X2.7584 Y0.5589
G1 X2.7608 Y0.5406
G1 X2.7679 Y0.5235
G1 X2.7791 Y0.5089
G1 X2.7938 Y0.4976
G1 X2.8108 Y0.4906
G1 X2.8292 Y0.4881
G1 Z-0.65 F30
G1 X2.8475 Y0.4906 F25
G1 X2.8646 Y0.4976
G1 X2.8792 Y0.5089
G1 X2.8905 Y0.5235
G1 X2.8975 Y0.5406
G1 X2.8999 Y0.5589
G1 X2.8975 Y0.5772
G1 X2.8905 Y0.5943
G1 X2.8792 Y0.609
G1 X2.8646 Y0.6202
G1 X2.8475 Y0.6273
G1 X2.8292 Y0.6297
G1 X2.8108 Y0.6273
G1 X2.7938 Y0.6202
G1 X2.7791 Y0.609
G1 X2.7679 Y0.5943
G1 X2.7608 Y0.5772
G1 X2.7584 Y0.5589
G1 X2.7608 Y0.5406
G1 X2.7679 Y0.5235
G1 X2.7791 Y0.5089
G1 X2.7938 Y0.4976
G1 X2.8108 Y0.4906
G1 X2.8292 Y0.4881

(profile 2)
G0 Z0.25
G0 X0 Y-0.125
G1 Z-0.1 F30
G1 X6.1693 Y-0.125 F25
G3 X6.1733 Y-0.1249 I0 J0.125
G1 X6.3219 Y-0.1202
G3 X6.3562 Y-0.1143 I-0.004 J0.1249
G1 X6.4977 Y-0.0687
G3 X6.5291 Y-0.0535 I-0.0383 J0.119
G1 X6.6525 Y0.0294
G3 X6.6785 Y0.0527 I-0.0697 J0.1038
G1 X6.7742 Y0.1664
G3 X6.7927 Y0.196 I-0.0956 J0.0805
G1 X6.8533 Y0.3317
G3 X6.8629 Y0.3652 I-0.1141 J0.0509
G1 X6.8836 Y0.5124
G3 X6.8849 Y0.5299 I-0.1238 J0.0174
G3 X6.8836 Y0.5473 I-0.125 J0
G1 X6.8629 Y0.6945
G3 X6.8533 Y0.728 I-0.1238 J-0.0174
G1 X6.7927 Y0.8638
G3 X6.7742 Y0.8933 I-0.1141 J-0.0509
G1 X6.6785 Y1.0071
G3 X6.6525 Y1.0303 I-0.0956 J-0.0805
G1 X6.5291 Y1.1132
G3 X6.4977 Y1.1284 I-0.0697 J-0.1038
G1 X6.3562 Y1.174
G3 X6.3219 Y1.1799 I-0.0383 J-0.119
G1 X6.1733 Y1.1846
G3 X6.1693 Y1.1847 I-0.004 J-0.1249
G1 X5.6644 Y1.1847
G1 X5.6435 Y1.187
G1 X5.6238 Y1.1917
G1 X5.6048 Y1.1987
G1 X5.5869 Y1.208
G1 X5.5702 Y1.2194
G1 X5.555 Y1.2328
G1 X5.5417 Y1.248
G1 X5.5302 Y1.2647
G1 X5.5209 Y1.2826
G1 X5.5139 Y1.3016
G1 X5.5092 Y1.3212
G1 X5.5069 Y1.3422
G1 X5.5069 Y4.7249
G3 X5.3819 Y4.8499 I-0.125 J0
G1 X0 Y4.8499
G3 X-0.125 Y4.7249 I0 J-0.125
G1 X-0.125 Y0
G3 X0 Y-0.125 I0.125 J0
G1 Z-0.2 F30
G1 X6.1693 Y-0.125 F25
G3 X6.1733 Y-0.1249 I0 J0.125
G1 X6.3219 Y-0.1202
G3 X6.3562 Y-0.1143 I-0.004 J0.1249
G1 X6.4977 Y-0.0687
G3 X6.5291 Y-0.0535 I-0.0383 J0.119
G1 X6.6525 Y0.0294
G3 X6.6785 Y0.0527 I-0.0697 J0.1038
G1 X6.7742 Y0.1664
G3 X6.7927 Y0.196 I-0.0956 J0.0805
G1 X6.8533 Y0.3317
G3 X6.8629 Y0.3652 I-0.1141 J0.0509
G1 X6.8836 Y0.5124
G3 X6.8849 Y0.5299 I-0.1238 J0.0174
G3 X6.8836 Y0.5473 I-0.125 J0
G1 X6.8629 Y0.6945
G3 X6.8533 Y0.728 I-0.1238 J-0.0174
G1 X6.7927 Y0.8638
G3 X6.7742 Y0.8933 I-0.1141 J-0.0509
G1 X6.6785 Y1.0071
G3 X6.6525 Y1.0303 I-0.0956 J-0.0805
G1 X6.5291 Y1.1132
G3 X6.4977 Y1.1284 I-0.0697 J-0.1038
G1 X6.3562 Y1.174
G3 X6.3219 Y1.1799 I-0.0383 J-0.119
G1 X6.1733 Y1.1846
G3 X6.1693 Y1.1847 I-0.004 J-0.1249
G1 X5.6644 Y1.1847
G1 X5.6435 Y1.187
G1 X5.6238 Y1.1917
G1 X5.6048 Y1.1987
G1 X5.5869 Y1.208
G1 X5.5702 Y1.2194
G1 X5.555 Y1.2328
G1 X5.5417 Y1.248
G1 X5.5302 Y1.2647
G1 X5.5209 Y1.2826
G1 X5.5139 Y1.3016
G1 X5.5092 Y1.3212
G1 X5.5069 Y1.3422
G1 X5.5069 Y4.7249
G3 X5.3819 Y4.8499 I-0.125 J0
G1 X0 Y4.8499
G3 X-0.125 Y4.7249 I0 J-0.125
G1 X-0.125 Y0
G3 X0 Y-0.125 I0.125 J0
G1 Z-0.3 F30
G1 X6.1693 Y-0.125 F25
G3 X6.1733 Y-0.1249 I0 J0.125
G1 X6.3219 Y-0.1202
G3 X6.3562 Y-0.1143 I-0.004 J0.1249
G1 X6.4977 Y-0.0687
G3 X6.5291 Y-0.0535 I-0.0383 J0.119
G1 X6.6525 Y0.0294
G3 X6.6785 Y0.0527 I-0.0697 J0.1038
G1 X6.7742 Y0.1664
G3 X6.7927 Y0.196 I-0.0956 J0.0805
G1 X6.8533 Y0.3317
G3 X6.8629 Y0.3652 I-0.1141 J0.0509
G1 X6.8836 Y0.5124
G3 X6.8849 Y0.5299 I-0.1238 J0.0174
G3 X6.8836 Y0.5473 I-0.125 J0
G1 X6.8629 Y0.6945
G3 X6.8533 Y0.728 I-0.1238 J-0.0174
G1 X6.7927 Y0.8638
G3 X6.7742 Y0.8933 I-0.1141 J-0.0509
G1 X6.6785 Y1.0071
G3 X6.6525 Y1.0303 I-0.0956 J-0.0805
G1 X6.5291 Y1.1132
G3 X6.4977 Y1.1284 I-0.0697 J-0.1038
G1 X6.3562 Y1.174
G3 X6.3219 Y1.1799 I-0.0383 J-0.119
G1 X6.1733 Y1.1846
G3 X6.1693 Y1.1847 I-0.004 J-0.1249
G1 X5.6644 Y1.1847
G1 X5.6435 Y1.187
G1 X5.6238 Y1.1917
G1 X5.6048 Y1.1987
G1 X5.5869 Y1.208
G1 X5.5702 Y1.2194
G1 X5.555 Y1.2328
G1 X5.5417 Y1.248
G1 X5.5302 Y1.2647
G1 X5.5209 Y1.2826
G1 X5.5139 Y1.3016
G1 X5.5092 Y1.3212
G1 X5.5069 Y1.3422
G1 X5.5069 Y4.7249
G3 X5.3819 Y4.8499 I-0.125 J0
G1 X0 Y4.8499
G3 X-0.125 Y4.7249 I0 J-0.125
G1 X-0.125 Y0
G3 X0 Y-0.125 I0.125 J0
G1 Z-0.4 F30
G1 X6.1693 Y-0.125 F25
G3 X6.1733 Y-0.1249 I0 J0.125
G1 X6.3219 Y-0.1202
G3 X6.3562 Y-0.1143 I-0.004 J0.1249
G1 X6.4977 Y-0.0687
G3 X6.5291 Y-0.0535 I-0.0383 J0.119
G1 X6.6525 Y0.0294
G3 X6.6785 Y0.0527 I-0.0697 J0.1038
G1 X6.7742 Y0.1664
G3 X6.7927 Y0.196 I-0.0956 J0.0805
G1 X6.8533 Y0.3317
G3 X6.8629 Y0.3652 I-0.1141 J0.0509
G1 X6.8836 Y0.5124
G3 X6.8849 Y0.5299 I-0.1238 J0.0174
G3 X6.8836 Y0.5473 I-0.125 J0
G1 X6.8629 Y0.6945
G3 X6.8533 Y0.728 I-0.1238 J-0.0174
G1 X6.7927 Y0.8638
G3 X6.7742 Y0.8933 I-0.1141 J-0.0509
G1 X6.6785 Y1.0071
G3 X6.6525 Y1.0303 I-0.0956 J-0.0805
G1 X6.5291 Y1.1132
G3 X6.4977 Y1.1284 I-0.0697 J-0.1038
G1 X6.3562 Y1.174
G3 X6.3219 Y1.1799 I-0.0383 J-0.119
G1 X6.1733 Y1.1846
G3 X6.1693 Y1.1847 I-0.004 J-0.1249
G1 X5.6644 Y1.1847
G1 X5.6435 Y1.187
G1 X5.6238 Y1.1917
G1 X5.6048 Y1.1987
G1 X5.5869 Y1.208
G1 X5.5702 Y1.2194
G1 X5.555 Y1.2328
G1 X5.5417 Y1.248
G1 X5.5302 Y1.2647
G1 X5.5209 Y1.2826
G1 X5.5139 Y1.3016
G1 X5.5092 Y1.3212
G1 X5.5069 Y1.3422
G1 X5.5069 Y4.7249
G3 X5.3819 Y4.8499 I-0.125 J0
G1 X0 Y4.8499
G3 X-0.125 Y4.7249 I0 J-0.125
G1 X-0.125 Y0
G3 X0 Y-0.125 I0.125 J0
G1 Z-0.5 F30
G1 X6.1693 Y-0.125 F25
G3 X6.1733 Y-0.1249 I0 J0.125
G1 X6.3219 Y-0.1202
G3 X6.3562 Y-0.1143 I-0.004 J0.1249
G1 X6.4977 Y-0.0687
G3 X6.5291 Y-0.0535 I-0.0383 J0.119
G1 X6.6525 Y0.0294
G3 X6.6785 Y0.0527 I-0.0697 J0.1038
G1 X6.7742 Y0.1664
G3 X6.7927 Y0.196 I-0.0956 J0.0805
G1 X6.8533 Y0.3317
G3 X6.8629 Y0.3652 I-0.1141 J0.0509
G1 X6.8836 Y0.5124
G3 X6.8849 Y0.5299 I-0.1238 J0.0174
G3 X6.8836 Y0.5473 I-0.125 J0
G1 X6.8629 Y0.6945
G3 X6.8533 Y0.728 I-0.1238 J-0.0174
G1 X6.7927 Y0.8638
G3 X6.7742 Y0.8933 I-0.1141 J-0.0509
G1 X6.6785 Y1.0071
G3 X6.6525 Y1.0303 I-0.0956 J-0.0805
G1 X6.5291 Y1.1132
G3 X6.4977 Y1.1284 I-0.0697 J-0.1038
G1 X6.3562 Y1.174
G3 X6.3219 Y1.1799 I-0.0383 J-0.119
G1 X6.1733 Y1.1846
G3 X6.1693 Y1.1847 I-0.004 J-0.1249
G1 X5.6644 Y1.1847
G1 X5.6435 Y1.187
G1 X5.6238 Y1.1917
G1 X5.6048 Y1.1987
G1 X5.5869 Y1.208
G1 X5.5702 Y1.2194
G1 X5.555 Y1.2328
G1 X5.5417 Y1.248
G1 X5.5302 Y1.2647
G1 X5.5209 Y1.2826
G1 X5.5139 Y1.3016
G1 X5.5092 Y1.3212
G1 X5.5069 Y1.3422
G1 X5.5069 Y4.7249
G3 X5.3819 Y4.8499 I-0.125 J0
G1 X0 Y4.8499
G3 X-0.125 Y4.7249 I0 J-0.125
G1 X-0.125 Y0
G3 X0 Y-0.125 I0.125 J0
G1 Z-0.6 F30
G1 X6.1693 Y-0.125 F25
G3 X6.1733 Y-0.1249 I0 J0.125
G1 X6.3219 Y-0.1202
G3 X6.3562 Y-0.1143 I-0.004 J0.1249
G1 X6.4977 Y-0.0687
G3 X6.5291 Y-0.0535 I-0.0383 J0.119
G1 X6.6525 Y0.0294
G3 X6.6785 Y0.0527 I-0.0697 J0.1038
G1 X6.7742 Y0.1664
G3 X6.7927 Y0.196 I-0.0956 J0.0805
G1 X6.8533 Y0.3317
G3 X6.8629 Y0.3652 I-0.1141 J0.0509
G1 X6.8836 Y0.5124
G3 X6.8849 Y0.5299 I-0.1238 J0.0174
G3 X6.8836 Y0.5473 I-0.125 J0
G1 X6.8629 Y0.6945
G3 X6.8533 Y0.728 I-0.1238 J-0.0174
G1 X6.7927 Y0.8638
G3 X6.7742 Y0.8933 I-0.1141 J-0.0509
G1 X6.6785 Y1.0071
G3 X6.6525 Y1.0303 I-0.0956 J-0.0805
G1 X6.5291 Y1.1132
G3 X6.4977 Y1.1284 I-0.0697 J-0.1038
G1 X6.3562 Y1.174
G3 X6.3219 Y1.1799 I-0.0383 J-0.119
G1 X6.1733 Y1.1846
G3 X6.1693 Y1.1847 I-0.004 J-0.1249
G1 X5.6644 Y1.1847
G1 X5.6435 Y1.187
G1 X5.6238 Y1.1917
G1 X5.6048 Y1.1987
G1 X5.5869 Y1.208
G1 X5.5702 Y1.2194
G1 X5.555 Y1.2328
G1 X5.5417 Y1.248
G1 X5.5302 Y1.2647
G1 X5.5209 Y1.2826
G1 X5.5139 Y1.3016
G1 X5.5092 Y1.3212
G1 X5.5069 Y1.3422
G1 X5.5069 Y4.7249
G3 X5.3819 Y4.8499 I-0.125 J0
G1 X0 Y4.8499
G3 X-0.125 Y4.7249 I0 J-0.125
G1 X-0.125 Y0
G3 X0 Y-0.125 I0.125 J0
G1 Z-0.65 F30
G1 X6.1693 Y-0.125 F25
G3 X6.1733 Y-0.1249 I0 J0.125
G1 X6.3219 Y-0.1202
G3 X6.3562 Y-0.1143 I-0.004 J0.1249
G1 X6.4977 Y-0.0687
G3 X6.5291 Y-0.0535 I-0.0383 J0.119
G1 X6.6525 Y0.0294
G3 X6.6785 Y0.0527 I-0.0697 J0.1038
G1 X6.7742 Y0.1664
G3 X6.7927 Y0.196 I-0.0956 J0.0805
G1 X6.8533 Y0.3317
G3 X6.8629 Y0.3652 I-0.1141 J0.0509
G1 X6.8836 Y0.5124
G3 X6.8849 Y0.5299 I-0.1238 J0.0174
G3 X6.8836 Y0.5473 I-0.125 J0
G1 X6.8629 Y0.6945
G3 X6.8533 Y0.728 I-0.1238 J-0.0174
G1 X6.7927 Y0.8638
G3 X6.7742 Y0.8933 I-0.1141 J-0.0509
G1 X6.6785 Y1.0071
G3 X6.6525 Y1.0303 I-0.0956 J-0.0805
G1 X6.5291 Y1.1132
G3 X6.4977 Y1.1284 I-0.0697 J-0.1038
G1 X6.3562 Y1.174
G3 X6.3219 Y1.1799 I-0.0383 J-0.119
G1 X6.1733 Y1.1846
G3 X6.1693 Y1.1847 I-0.004 J-0.1249
G1 X5.6644 Y1.1847
G1 X5.6435 Y1.187
G1 X5.6238 Y1.1917
G1 X5.6048 Y1.1987
G1 X5.5869 Y1.208
G1 X5.5702 Y1.2194
G1 X5.555 Y1.2328
G1 X5.5417 Y1.248
G1 X5.5302 Y1.2647
G1 X5.5209 Y1.2826
G1 X5.5139 Y1.3016
G1 X5.5092 Y1.3212
G1 X5.5069 Y1.3422
G1 X5.5069 Y4.7249
G3 X5.3819 Y4.8499 I-0.125 J0
G1 X0 Y4.8499
G3 X-0.125 Y4.7249 I0 J-0.125
G1 X-0.125 Y0
G3 X0 Y-0.125 I0.125 J0
G0 Z0.25
M5
M30
