(Generated by PartKam Version 0.05)

G20 G90 G40

(CAUSE)
G0 Z0.25
T0 M6
G17
M3
G0 X1.3062 Y7.0303
G1 Z-0.05 F30
G1 X-1.6542 Y7.0316 F15
G3 X-1.7625 Y6.9692 I-0.0001 J-0.125
G1 X-2.9644 Y4.8899
G1 X-5.3915 Y4.8881
G3 X-5.4996 Y4.8257 I0.0001 J-0.125
G1 X-6.9785 Y2.2675
G3 X-6.9953 Y2.2049 I0.1082 J-0.0626
G3 X-6.9785 Y2.1424 I0.125 J0
G1 X-5.7791 Y0.0652
G1 X-6.9912 Y-2.0343
G3 X-7.0079 Y-2.0968 I0.1083 J-0.0625
G3 X-6.9912 Y-2.1593 I0.125 J0
G1 X-5.5121 Y-4.7238
G3 X-5.4039 Y-4.7863 I0.1083 J0.0625
G1 X-3.0014 Y-4.7876
G1 X-1.7718 Y-6.8577
G3 X-1.6655 Y-6.9189 I0.1075 J0.0638
G1 X1.2743 Y-6.9463
G3 X1.3837 Y-6.8838 I0.0012 J0.125
G1 X2.583 Y-4.8064
G1 X5.01 Y-4.8046
G3 X5.1182 Y-4.7421 I-0.0001 J0.125
G1 X6.5969 Y-2.1807
G3 X6.6136 Y-2.1182 I-0.1083 J0.0625
G3 X6.5968 Y-2.0556 I-0.125 J0
G1 X5.3977 Y0.0184
G1 X6.6097 Y2.1179
G3 X6.6265 Y2.1804 I-0.1083 J0.0625
G3 X6.6098 Y2.2428 I-0.125 J0
G1 X5.1336 Y4.8058
G3 X5.0253 Y4.8684 I-0.1083 J-0.0624
G1 X2.6266 Y4.8684
G1 X1.4144 Y6.9678
G3 X1.3062 Y7.0303 I-0.1083 J-0.0625
G1 Z-0.1 F30
G1 X-1.6542 Y7.0316 F15
G3 X-1.7625 Y6.9692 I-0.0001 J-0.125
G1 X-2.9644 Y4.8899
G1 X-5.3915 Y4.8881
G3 X-5.4996 Y4.8257 I0.0001 J-0.125
G1 X-6.9785 Y2.2675
G3 X-6.9953 Y2.2049 I0.1082 J-0.0626
G3 X-6.9785 Y2.1424 I0.125 J0
G1 X-5.7791 Y0.0652
G1 X-6.9912 Y-2.0343
G3 X-7.0079 Y-2.0968 I0.1083 J-0.0625
G3 X-6.9912 Y-2.1593 I0.125 J0
G1 X-5.5121 Y-4.7238
G3 X-5.4039 Y-4.7863 I0.1083 J0.0625
G1 X-3.0014 Y-4.7876
G1 X-1.7718 Y-6.8577
G3 X-1.6655 Y-6.9189 I0.1075 J0.0638
G1 X1.2743 Y-6.9463
G3 X1.3837 Y-6.8838 I0.0012 J0.125
G1 X2.583 Y-4.8064
G1 X5.01 Y-4.8046
G3 X5.1182 Y-4.7421 I-0.0001 J0.125
G1 X6.5969 Y-2.1807
G3 X6.6136 Y-2.1182 I-0.1083 J0.0625
G3 X6.5968 Y-2.0556 I-0.125 J0
G1 X5.3977 Y0.0184
G1 X6.6097 Y2.1179
G3 X6.6265 Y2.1804 I-0.1083 J0.0625
G3 X6.6098 Y2.2428 I-0.125 J0
G1 X5.1336 Y4.8058
G3 X5.0253 Y4.8684 I-0.1083 J-0.0624
G1 X2.6266 Y4.8684
G1 X1.4144 Y6.9678
G3 X1.3062 Y7.0303 I-0.1083 J-0.0625
G1 Z-0.15 F30
G1 X-1.6542 Y7.0316 F15
G3 X-1.7625 Y6.9692 I-0.0001 J-0.125
G1 X-2.9644 Y4.8899
G1 X-5.3915 Y4.8881
G3 X-5.4996 Y4.8257 I0.0001 J-0.125
G1 X-6.9785 Y2.2675
G3 X-6.9953 Y2.2049 I0.1082 J-0.0626
G3 X-6.9785 Y2.1424 I0.125 J0
G1 X-5.7791 Y0.0652
G1 X-6.9912 Y-2.0343
G3 X-7.0079 Y-2.0968 I0.1083 J-0.0625
G3 X-6.9912 Y-2.1593 I0.125 J0
G1 X-5.5121 Y-4.7238
G3 X-5.4039 Y-4.7863 I0.1083 J0.0625
G1 X-3.0014 Y-4.7876
G1 X-1.7718 Y-6.8577
G3 X-1.6655 Y-6.9189 I0.1075 J0.0638
G1 X1.2743 Y-6.9463
G3 X1.3837 Y-6.8838 I0.0012 J0.125
G1 X2.583 Y-4.8064
G1 X5.01 Y-4.8046
G3 X5.1182 Y-4.7421 I-0.0001 J0.125
G1 X6.5969 Y-2.1807
G3 X6.6136 Y-2.1182 I-0.1083 J0.0625
G3 X6.5968 Y-2.0556 I-0.125 J0
G1 X5.3977 Y0.0184
G1 X6.6097 Y2.1179
G3 X6.6265 Y2.1804 I-0.1083 J0.0625
G3 X6.6098 Y2.2428 I-0.125 J0
G1 X5.1336 Y4.8058
G3 X5.0253 Y4.8684 I-0.1083 J-0.0624
G1 X2.6266 Y4.8684
G1 X1.4144 Y6.9678
G3 X1.3062 Y7.0303 I-0.1083 J-0.0625
G1 Z-0.2 F30
G1 X-1.6542 Y7.0316 F15
G3 X-1.7625 Y6.9692 I-0.0001 J-0.125
G1 X-2.9644 Y4.8899
G1 X-5.3915 Y4.8881
G3 X-5.4996 Y4.8257 I0.0001 J-0.125
G1 X-6.9785 Y2.2675
G3 X-6.9953 Y2.2049 I0.1082 J-0.0626
G3 X-6.9785 Y2.1424 I0.125 J0
G1 X-5.7791 Y0.0652
G1 X-6.9912 Y-2.0343
G3 X-7.0079 Y-2.0968 I0.1083 J-0.0625
G3 X-6.9912 Y-2.1593 I0.125 J0
G1 X-5.5121 Y-4.7238
G3 X-5.4039 Y-4.7863 I0.1083 J0.0625
G1 X-3.0014 Y-4.7876
G1 X-1.7718 Y-6.8577
G3 X-1.6655 Y-6.9189 I0.1075 J0.0638
G1 X1.2743 Y-6.9463
G3 X1.3837 Y-6.8838 I0.0012 J0.125
G1 X2.583 Y-4.8064
G1 X5.01 Y-4.8046
G3 X5.1182 Y-4.7421 I-0.0001 J0.125
G1 X6.5969 Y-2.1807
G3 X6.6136 Y-2.1182 I-0.1083 J0.0625
G3 X6.5968 Y-2.0556 I-0.125 J0
G1 X5.3977 Y0.0184
G1 X6.6097 Y2.1179
G3 X6.6265 Y2.1804 I-0.1083 J0.0625
G3 X6.6098 Y2.2428 I-0.125 J0
G1 X5.1336 Y4.8058
G3 X5.0253 Y4.8684 I-0.1083 J-0.0624
G1 X2.6266 Y4.8684
G1 X1.4144 Y6.9678
G3 X1.3062 Y7.0303 I-0.1083 J-0.0625
G1 Z-0.25 F30
G1 X-1.6542 Y7.0316 F15
G3 X-1.7625 Y6.9692 I-0.0001 J-0.125
G1 X-2.9644 Y4.8899
G1 X-5.3915 Y4.8881
G3 X-5.4996 Y4.8257 I0.0001 J-0.125
G1 X-6.9785 Y2.2675
G3 X-6.9953 Y2.2049 I0.1082 J-0.0626
G3 X-6.9785 Y2.1424 I0.125 J0
G1 X-5.7791 Y0.0652
G1 X-6.9912 Y-2.0343
G3 X-7.0079 Y-2.0968 I0.1083 J-0.0625
G3 X-6.9912 Y-2.1593 I0.125 J0
G1 X-5.5121 Y-4.7238
G3 X-5.4039 Y-4.7863 I0.1083 J0.0625
G1 X-3.0014 Y-4.7876
G1 X-1.7718 Y-6.8577
G3 X-1.6655 Y-6.9189 I0.1075 J0.0638
G1 X1.2743 Y-6.9463
G3 X1.3837 Y-6.8838 I0.0012 J0.125
G1 X2.583 Y-4.8064
G1 X5.01 Y-4.8046
G3 X5.1182 Y-4.7421 I-0.0001 J0.125
G1 X6.5969 Y-2.1807
G3 X6.6136 Y-2.1182 I-0.1083 J0.0625
G3 X6.5968 Y-2.0556 I-0.125 J0
G1 X5.3977 Y0.0184
G1 X6.6097 Y2.1179
G3 X6.6265 Y2.1804 I-0.1083 J0.0625
G3 X6.6098 Y2.2428 I-0.125 J0
G1 X5.1336 Y4.8058
G3 X5.0253 Y4.8684 I-0.1083 J-0.0624
G1 X2.6266 Y4.8684
G1 X1.4144 Y6.9678
G3 X1.3062 Y7.0303 I-0.1083 J-0.0625
G1 Z-0.3 F30
G1 X-1.6542 Y7.0316 F15
G3 X-1.7625 Y6.9692 I-0.0001 J-0.125
G1 X-2.9644 Y4.8899
G1 X-5.3915 Y4.8881
G3 X-5.4996 Y4.8257 I0.0001 J-0.125
G1 X-6.9785 Y2.2675
G3 X-6.9953 Y2.2049 I0.1082 J-0.0626
G3 X-6.9785 Y2.1424 I0.125 J0
G1 X-5.7791 Y0.0652
G1 X-6.9912 Y-2.0343
G3 X-7.0079 Y-2.0968 I0.1083 J-0.0625
G3 X-6.9912 Y-2.1593 I0.125 J0
G1 X-5.5121 Y-4.7238
G3 X-5.4039 Y-4.7863 I0.1083 J0.0625
G1 X-3.0014 Y-4.7876
G1 X-1.7718 Y-6.8577
G3 X-1.6655 Y-6.9189 I0.1075 J0.0638
G1 X1.2743 Y-6.9463
G3 X1.3837 Y-6.8838 I0.0012 J0.125
G1 X2.583 Y-4.8064
G1 X5.01 Y-4.8046
G3 X5.1182 Y-4.7421 I-0.0001 J0.125
G1 X6.5969 Y-2.1807
G3 X6.6136 Y-2.1182 I-0.1083 J0.0625
G3 X6.5968 Y-2.0556 I-0.125 J0
G1 X5.3977 Y0.0184
G1 X6.6097 Y2.1179
G3 X6.6265 Y2.1804 I-0.1083 J0.0625
G3 X6.6098 Y2.2428 I-0.125 J0
G1 X5.1336 Y4.8058
G3 X5.0253 Y4.8684 I-0.1083 J-0.0624
G1 X2.6266 Y4.8684
G1 X1.4144 Y6.9678
G3 X1.3062 Y7.0303 I-0.1083 J-0.0625
G1 Z-0.35 F30
G1 X-1.6542 Y7.0316 F15
G3 X-1.7625 Y6.9692 I-0.0001 J-0.125
G1 X-2.9644 Y4.8899
G1 X-5.3915 Y4.8881
G3 X-5.4996 Y4.8257 I0.0001 J-0.125
G1 X-6.9785 Y2.2675
G3 X-6.9953 Y2.2049 I0.1082 J-0.0626
G3 X-6.9785 Y2.1424 I0.125 J0
G1 X-5.7791 Y0.0652
G1 X-6.9912 Y-2.0343
G3 X-7.0079 Y-2.0968 I0.1083 J-0.0625
G3 X-6.9912 Y-2.1593 I0.125 J0
G1 X-5.5121 Y-4.7238
G3 X-5.4039 Y-4.7863 I0.1083 J0.0625
G1 X-3.0014 Y-4.7876
G1 X-1.7718 Y-6.8577
G3 X-1.6655 Y-6.9189 I0.1075 J0.0638
G1 X1.2743 Y-6.9463
G3 X1.3837 Y-6.8838 I0.0012 J0.125
G1 X2.583 Y-4.8064
G1 X5.01 Y-4.8046
G3 X5.1182 Y-4.7421 I-0.0001 J0.125
G1 X6.5969 Y-2.1807
G3 X6.6136 Y-2.1182 I-0.1083 J0.0625
G3 X6.5968 Y-2.0556 I-0.125 J0
G1 X5.3977 Y0.0184
G1 X6.6097 Y2.1179
G3 X6.6265 Y2.1804 I-0.1083 J0.0625
G3 X6.6098 Y2.2428 I-0.125 J0
G1 X5.1336 Y4.8058
G3 X5.0253 Y4.8684 I-0.1083 J-0.0624
G1 X2.6266 Y4.8684
G1 X1.4144 Y6.9678
G3 X1.3062 Y7.0303 I-0.1083 J-0.0625
G1 Z-0.4 F30
G1 X-1.6542 Y7.0316 F15
G3 X-1.7625 Y6.9692 I-0.0001 J-0.125
G1 X-2.9644 Y4.8899
G1 X-5.3915 Y4.8881
G3 X-5.4996 Y4.8257 I0.0001 J-0.125
G1 X-6.9785 Y2.2675
G3 X-6.9953 Y2.2049 I0.1082 J-0.0626
G3 X-6.9785 Y2.1424 I0.125 J0
G1 X-5.7791 Y0.0652
G1 X-6.9912 Y-2.0343
G3 X-7.0079 Y-2.0968 I0.1083 J-0.0625
G3 X-6.9912 Y-2.1593 I0.125 J0
G1 X-5.5121 Y-4.7238
G3 X-5.4039 Y-4.7863 I0.1083 J0.0625
G1 X-3.0014 Y-4.7876
G1 X-1.7718 Y-6.8577
G3 X-1.6655 Y-6.9189 I0.1075 J0.0638
G1 X1.2743 Y-6.9463
G3 X1.3837 Y-6.8838 I0.0012 J0.125
G1 X2.583 Y-4.8064
G1 X5.01 Y-4.8046
G3 X5.1182 Y-4.7421 I-0.0001 J0.125
G1 X6.5969 Y-2.1807
G3 X6.6136 Y-2.1182 I-0.1083 J0.0625
G3 X6.5968 Y-2.0556 I-0.125 J0
G1 X5.3977 Y0.0184
G1 X6.6097 Y2.1179
G3 X6.6265 Y2.1804 I-0.1083 J0.0625
G3 X6.6098 Y2.2428 I-0.125 J0
G1 X5.1336 Y4.8058
G3 X5.0253 Y4.8684 I-0.1083 J-0.0624
G1 X2.6266 Y4.8684
G1 X1.4144 Y6.9678
G3 X1.3062 Y7.0303 I-0.1083 J-0.0625
G1 Z-0.45 F30
G1 X-1.6542 Y7.0316 F15
G3 X-1.7625 Y6.9692 I-0.0001 J-0.125
G1 X-2.9644 Y4.8899
G1 X-5.3915 Y4.8881
G3 X-5.4996 Y4.8257 I0.0001 J-0.125
G1 X-6.9785 Y2.2675
G3 X-6.9953 Y2.2049 I0.1082 J-0.0626
G3 X-6.9785 Y2.1424 I0.125 J0
G1 X-5.7791 Y0.0652
G1 X-6.9912 Y-2.0343
G3 X-7.0079 Y-2.0968 I0.1083 J-0.0625
G3 X-6.9912 Y-2.1593 I0.125 J0
G1 X-5.5121 Y-4.7238
G3 X-5.4039 Y-4.7863 I0.1083 J0.0625
G1 X-3.0014 Y-4.7876
G1 X-1.7718 Y-6.8577
G3 X-1.6655 Y-6.9189 I0.1075 J0.0638
G1 X1.2743 Y-6.9463
G3 X1.3837 Y-6.8838 I0.0012 J0.125
G1 X2.583 Y-4.8064
G1 X5.01 Y-4.8046
G3 X5.1182 Y-4.7421 I-0.0001 J0.125
G1 X6.5969 Y-2.1807
G3 X6.6136 Y-2.1182 I-0.1083 J0.0625
G3 X6.5968 Y-2.0556 I-0.125 J0
G1 X5.3977 Y0.0184
G1 X6.6097 Y2.1179
G3 X6.6265 Y2.1804 I-0.1083 J0.0625
G3 X6.6098 Y2.2428 I-0.125 J0
G1 X5.1336 Y4.8058
G3 X5.0253 Y4.8684 I-0.1083 J-0.0624
G1 X2.6266 Y4.8684
G1 X1.4144 Y6.9678
G3 X1.3062 Y7.0303 I-0.1083 J-0.0625
G1 Z-0.5 F30
G1 X-1.6542 Y7.0316 F15
G3 X-1.7625 Y6.9692 I-0.0001 J-0.125
G1 X-2.9644 Y4.8899
G1 X-5.3915 Y4.8881
G3 X-5.4996 Y4.8257 I0.0001 J-0.125
G1 X-6.9785 Y2.2675
G3 X-6.9953 Y2.2049 I0.1082 J-0.0626
G3 X-6.9785 Y2.1424 I0.125 J0
G1 X-5.7791 Y0.0652
G1 X-6.9912 Y-2.0343
G3 X-7.0079 Y-2.0968 I0.1083 J-0.0625
G3 X-6.9912 Y-2.1593 I0.125 J0
G1 X-5.5121 Y-4.7238
G3 X-5.4039 Y-4.7863 I0.1083 J0.0625
G1 X-3.0014 Y-4.7876
G1 X-1.7718 Y-6.8577
G3 X-1.6655 Y-6.9189 I0.1075 J0.0638
G1 X1.2743 Y-6.9463
G3 X1.3837 Y-6.8838 I0.0012 J0.125
G1 X2.583 Y-4.8064
G1 X5.01 Y-4.8046
G3 X5.1182 Y-4.7421 I-0.0001 J0.125
G1 X6.5969 Y-2.1807
G3 X6.6136 Y-2.1182 I-0.1083 J0.0625
G3 X6.5968 Y-2.0556 I-0.125 J0
G1 X5.3977 Y0.0184
G1 X6.6097 Y2.1179
G3 X6.6265 Y2.1804 I-0.1083 J0.0625
G3 X6.6098 Y2.2428 I-0.125 J0
G1 X5.1336 Y4.8058
G3 X5.0253 Y4.8684 I-0.1083 J-0.0624
G1 X2.6266 Y4.8684
G1 X1.4144 Y6.9678
G3 X1.3062 Y7.0303 I-0.1083 J-0.0625
G1 Z-0.55 F30
G1 X-1.6542 Y7.0316 F15
G3 X-1.7625 Y6.9692 I-0.0001 J-0.125
G1 X-2.9644 Y4.8899
G1 X-5.3915 Y4.8881
G3 X-5.4996 Y4.8257 I0.0001 J-0.125
G1 X-6.9785 Y2.2675
G3 X-6.9953 Y2.2049 I0.1082 J-0.0626
G3 X-6.9785 Y2.1424 I0.125 J0
G1 X-5.7791 Y0.0652
G1 X-6.9912 Y-2.0343
G3 X-7.0079 Y-2.0968 I0.1083 J-0.0625
G3 X-6.9912 Y-2.1593 I0.125 J0
G1 X-5.5121 Y-4.7238
G3 X-5.4039 Y-4.7863 I0.1083 J0.0625
G1 X-3.0014 Y-4.7876
G1 X-1.7718 Y-6.8577
G3 X-1.6655 Y-6.9189 I0.1075 J0.0638
G1 X1.2743 Y-6.9463
G3 X1.3837 Y-6.8838 I0.0012 J0.125
G1 X2.583 Y-4.8064
G1 X5.01 Y-4.8046
G3 X5.1182 Y-4.7421 I-0.0001 J0.125
G1 X6.5969 Y-2.1807
G3 X6.6136 Y-2.1182 I-0.1083 J0.0625
G3 X6.5968 Y-2.0556 I-0.125 J0
G1 X5.3977 Y0.0184
G1 X6.6097 Y2.1179
G3 X6.6265 Y2.1804 I-0.1083 J0.0625
G3 X6.6098 Y2.2428 I-0.125 J0
G1 X5.1336 Y4.8058
G3 X5.0253 Y4.8684 I-0.1083 J-0.0624
G1 X2.6266 Y4.8684
G1 X1.4144 Y6.9678
G3 X1.3062 Y7.0303 I-0.1083 J-0.0625
G0 Z0.25
M5
M30
